huggingface/lerobot/act_train/latency_runs/run_20260514_203812/data.csv
t_rel_s,raw_x,raw_y,raw_z,dx,dy,dz,stick_mag,target_x,target_y,target_z,tcp_x,tcp_y,tcp_z,tcp_vx,tcp_vy,tcp_vz,tcp_speed,q0,q1,q2,q3,q4,q5,qd0,qd1,qd2,qd3,qd4,qd5
0.000011,0.003906,0.003906,0.003906,-0.000000,0.000000,-0.000000,0.000000,-0.191635,-0.484633,0.162654,-0.191635,-0.484633,0.162654,0.000000,0.000000,0.000000,0.000000,0.853514,-1.399926,2.484345,3.628010,4.712415,2.424268,0.000000,-0.000000,-0.000000,0.000000,0.000000,0.000000
0.020065,0.003906,0.003906,0.003906,-0.000000,0.000000,-0.000000,0.000000,-0.191635,-0.484633,0.162654,-0.191637,-0.484632,0.162673,0.000000,0.000000,0.000000,0.000000,0.853518,-1.399962,2.484349,3.627986,4.712375,2.424304,0.000000,-0.000000,-0.000000,0.000000,0.000000,0.000000
0.040121,0.003906,0.003906,0.003906,-0.000000,0.000000,-0.000000,0.000000,-0.191635,-0.484633,0.162654,-0.191643,-0.484623,0.162692,0.000000,0.000000,0.000000,0.000000,0.853494,-1.400011,2.484361,3.627986,4.712391,2.424308,0.000000,-0.000000,-0.000000,0.000000,0.000000,0.000000
0.060160,0.003906,0.003906,0.003906,-0.000000,0.000000,-0.000000,0.000000,-0.191635,-0.484633,0.162654,-0.191630,-0.484613,0.162673,0.000000,0.000000,0.000000,0.000000,0.853494,-1.399990,2.484389,3.627974,4.712420,2.424311,0.000000,-0.000000,-0.000000,0.000000,0.000000,0.000000
0.080215,0.003906,0.003906,0.003906,-0.000000,0.000000,-0.000000,0.000000,-0.191635,-0.484633,0.162654,-0.191625,-0.484637,0.162656,0.000000,0.000000,0.000000,0.000000,0.853542,-1.399926,2.484349,3.627982,4.712383,2.424304,0.000000,-0.000000,-0.000000,0.000000,0.000000,0.000000
0.100270,0.003906,0.003906,0.003906,-0.000000,0.000000,-0.000000,0.000000,-0.191635,-0.484633,0.162654,-0.191636,-0.484647,0.162660,0.000000,0.000000,0.000000,0.000000,0.853526,-1.399918,2.484330,3.627974,4.712436,2.424343,0.000000,-0.000000,-0.000000,0.000000,0.000000,0.000000
0.120324,0.003906,0.003906,0.003906,-0.000000,0.000000,-0.000000,0.000000,-0.191635,-0.484633,0.162654,-0.191616,-0.484613,0.162655,0.000000,0.000000,0.000000,0.000000,0.853534,-1.399954,2.484393,3.627962,4.712339,2.424295,0.000000,-0.000000,-0.000000,0.000000,0.000000,0.000000
0.140378,0.003906,0.003906,0.003906,-0.000000,0.000000,-0.000000,0.000000,-0.191635,-0.484633,0.162654,-0.191622,-0.484603,0.162633,0.000000,0.000000,0.000000,0.000000,0.853506,-1.399926,2.484397,3.628015,4.712363,2.424288,0.000000,-0.000000,-0.000000,0.000000,0.000000,0.000000
0.160430,0.003906,0.003906,0.003906,-0.000000,0.000000,-0.000000,0.000000,-0.191635,-0.484633,0.162654,-0.191634,-0.484635,0.162673,0.000000,0.000000,0.000000,0.000000,0.853530,-1.399962,2.484337,3.628026,4.712363,2.424328,0.000000,-0.000000,-0.000000,0.000000,0.000000,0.000000
0.180486,0.003906,0.003906,0.003906,-0.000000,0.000000,-0.000000,0.000000,-0.191635,-0.484633,0.162654,-0.191630,-0.484628,0.162644,0.000000,0.000000,0.000000,0.000000,0.853526,-1.399906,2.484366,3.627946,4.712367,2.424295,0.000000,-0.000000,-0.000000,0.000000,0.000000,0.000000
0.200537,0.003906,0.003906,0.003906,-0.000000,0.000000,-0.000000,0.000000,-0.191635,-0.484633,0.162654,-0.191626,-0.484632,0.162676,0.000000,0.000000,0.000000,0.000000,0.853534,-1.399974,2.484357,3.627986,4.712383,2.424295,0.000000,-0.000000,-0.000000,0.000000,0.000000,0.000000
0.220591,0.003906,0.003906,0.003906,-0.000000,0.000000,-0.000000,0.000000,-0.191635,-0.484633,0.162654,-0.191626,-0.484605,0.162661,0.000000,0.000000,0.000000,0.000000,0.853506,-1.399974,2.484397,3.627978,4.712347,2.424315,0.000000,-0.000000,-0.000000,0.000000,0.000000,0.000000
0.240648,0.003906,0.003906,0.003906,-0.000000,0.000000,-0.000000,0.000000,-0.191635,-0.484633,0.162654,-0.191617,-0.484631,0.162672,0.000000,0.000000,0.000000,0.000000,0.853546,-1.399970,2.484366,3.627978,4.712383,2.424327,0.000000,-0.000000,-0.000000,0.000000,0.000000,0.000000
0.260699,0.003906,0.003906,0.003906,-0.000000,0.000000,-0.000000,0.000000,-0.191635,-0.484633,0.162654,-0.191620,-0.484604,0.162633,0.000000,0.000000,0.000000,0.000000,0.853506,-1.399926,2.484397,3.628014,4.712379,2.424315,0.000000,-0.000000,-0.000000,0.000000,0.000000,0.000000
0.280752,0.003906,0.003906,0.003906,-0.000000,0.000000,-0.000000,0.000000,-0.191635,-0.484633,0.162654,-0.191612,-0.484640,0.162644,0.000000,0.000000,0.000000,0.000000,0.853566,-1.399906,2.484349,3.627998,4.712383,2.424343,0.000000,-0.000000,-0.000000,0.000000,0.000000,0.000000
0.300803,0.003906,0.003906,0.003906,-0.000000,0.000000,-0.000000,0.000000,-0.191635,-0.484633,0.162654,-0.191615,-0.484634,0.162676,0.000000,0.000000,0.000000,0.000000,0.853550,-1.399978,2.484361,3.627986,4.712399,2.424251,0.000000,-0.000000,-0.000000,0.000000,0.000000,0.000000
0.320858,0.003906,0.003906,0.003906,-0.000000,0.000000,-0.000000,0.000000,-0.191635,-0.484633,0.162654,-0.191621,-0.484617,0.162646,0.000000,0.000000,0.000000,0.000000,0.853530,-1.399930,2.484382,3.627974,4.712347,2.424364,0.000000,-0.000000,-0.000000,0.000000,0.000000,0.000000
0.340912,0.003906,0.003906,0.003906,-0.000000,0.000000,-0.000000,0.000000,-0.191635,-0.484633,0.162654,-0.191635,-0.484646,0.162672,0.000000,0.000000,0.000000,0.000000,0.853534,-1.399942,2.484333,3.627961,4.712403,2.424327,0.000000,-0.000000,-0.000000,0.000000,0.000000,0.000000
0.360968,0.003906,0.003906,0.003906,-0.000000,0.000000,-0.000000,0.000000,-0.191635,-0.484633,0.162654,-0.191635,-0.484613,0.162673,0.000000,0.000000,0.000000,0.000000,0.853494,-1.399986,2.484385,3.627970,4.712388,2.424315,0.000000,-0.000000,-0.000000,0.000000,0.000000,0.000000
0.381025,0.003906,0.003906,0.003906,-0.000000,0.000000,-0.000000,0.000000,-0.191635,-0.484633,0.162654,-0.191612,-0.484636,0.162663,0.000000,0.000000,0.000000,0.000000,0.853550,-1.399946,2.484370,3.627937,4.712424,2.424327,0.000000,-0.000000,-0.000000,0.000000,0.000000,0.000000
0.401079,0.003906,0.003906,0.003906,-0.000000,0.000000,-0.000000,0.000000,-0.191635,-0.484633,0.162654,-0.191612,-0.484625,0.162659,0.000000,0.000000,-0.000000,0.000000,0.853554,-1.399950,2.484378,3.627958,4.712347,2.424323,0.000000,0.000000,-0.000000,0.000000,0.000000,0.000000
0.421133,0.003906,0.003906,0.003906,-0.000000,0.000000,-0.000000,0.000000,-0.191635,-0.484633,0.162654,-0.191633,-0.484635,0.162662,0.000000,0.000000,-0.000000,0.000000,0.853518,-1.399942,2.484345,3.628007,4.712420,2.424327,0.000000,0.000000,-0.000000,-0.000000,0.000000,0.000000
0.441159,0.003906,0.003906,0.003906,-0.000000,0.000000,-0.000000,0.000000,-0.191635,-0.484633,0.162654,-0.191624,-0.484629,0.162669,0.000000,0.000000,-0.000000,0.000000,0.853530,-1.399966,2.484361,3.627999,4.712395,2.424304,0.000000,0.000000,-0.000000,-0.000000,0.000000,0.000000
0.461212,0.003906,0.003906,0.003906,-0.000000,0.000000,-0.000000,0.000000,-0.191635,-0.484633,0.162654,-0.191640,-0.484626,0.162642,0.000002,0.000002,-0.000072,0.000072,0.853502,-1.399902,2.484357,3.627974,4.712395,2.424331,0.000000,0.000146,-0.000000,0.000000,0.000000,0.000000
0.481268,0.003906,0.003906,0.003906,-0.000000,0.000000,-0.000000,0.000000,-0.191635,-0.484633,0.162654,-0.191642,-0.484628,0.162673,0.000002,0.000002,-0.000076,0.000076,0.853498,-1.399966,2.484353,3.627990,4.712408,2.424263,0.000000,0.000154,-0.000000,0.000000,0.000000,0.000000
0.501327,0.003906,0.003906,0.003906,-0.000000,0.000000,-0.000000,0.000000,-0.191635,-0.484633,0.162654,-0.191602,-0.484636,0.162668,-0.000001,-0.000001,-0.000073,0.000073,0.853578,-1.399966,2.484361,3.628002,4.712375,2.424315,0.000000,0.000157,-0.000000,-0.000035,0.000000,0.000000
0.521381,0.003906,0.003906,0.003906,-0.000000,0.000000,-0.000000,0.000000,-0.191635,-0.484633,0.162654,-0.191627,-0.484625,0.162643,-0.000001,-0.000001,-0.000065,0.000065,0.853522,-1.399914,2.484366,3.627990,4.712388,2.424331,0.000000,0.000139,-0.000000,-0.000030,0.000000,0.000000
0.541391,0.003906,0.003906,0.003906,-0.000000,0.000000,-0.000000,0.000000,-0.191635,-0.484633,0.162654,-0.191629,-0.484630,0.162658,-0.000001,-0.000002,-0.000060,0.000060,0.853522,-1.399942,2.484353,3.628015,4.712403,2.424296,0.000000,0.000132,-0.000000,-0.000039,0.000000,0.000000
0.561445,0.003906,0.003906,0.003906,-0.000000,0.000000,-0.000000,0.000000,-0.191635,-0.484633,0.162654,-0.191644,-0.484634,0.162663,-0.000002,-0.000002,-0.000055,0.000056,0.853514,-1.399938,2.484333,3.628022,4.712363,2.424356,0.000000,0.000124,-0.000000,-0.000045,0.000000,0.000000
0.581501,0.003906,0.003906,0.003906,-0.000000,0.000000,-0.000000,0.000000,-0.191635,-0.484633,0.162654,-0.191642,-0.484637,0.162661,0.000000,0.000000,-0.000056,0.000056,0.853526,-1.399926,2.484333,3.627990,4.712339,2.424296,0.000000,0.000118,-0.000000,-0.000016,0.000000,0.000000
0.601555,0.003906,0.003906,0.003906,-0.000000,0.000000,-0.000000,0.000000,-0.191635,-0.484633,0.162654,-0.191641,-0.484631,0.162650,0.000001,0.000002,-0.000056,0.000056,0.853514,-1.399914,2.484341,3.628007,4.712363,2.424295,0.000000,0.000114,-0.000000,-0.000000,0.000000,0.000000
0.621609,0.003906,0.003906,0.003906,-0.000000,0.000000,-0.000000,0.000000,-0.191635,-0.484633,0.162654,-0.191624,-0.484635,0.162643,-0.000004,-0.000005,-0.000046,0.000046,0.853546,-1.399898,2.484353,3.627966,4.712363,2.424315,0.000000,0.000110,-0.000000,-0.000071,0.000000,0.000000
0.641663,0.003906,0.003906,0.003906,-0.000000,0.000000,-0.000000,0.000000,-0.191635,-0.484633,0.162654,-0.191641,-0.484637,0.162665,-0.000004,-0.000004,-0.000040,0.000040,0.853514,-1.399938,2.484341,3.627978,4.712395,2.424343,0.000000,0.000095,-0.000000,-0.000061,0.000000,0.000000
0.661704,0.003906,0.003906,0.003906,-0.000000,0.000000,-0.000000,0.000000,-0.191635,-0.484633,0.162654,-0.191606,-0.484644,0.162648,-0.000004,-0.000004,-0.000037,0.000037,0.853586,-1.399906,2.484349,3.627969,4.712358,2.424331,0.000000,0.000090,-0.000000,-0.000065,0.000000,0.000000
0.681757,0.003906,0.003906,0.003906,-0.000000,0.000000,-0.000000,0.000000,-0.191635,-0.484633,0.162654,-0.191646,-0.484630,0.162677,0.000001,0.000001,-0.000037,0.000037,0.853498,-1.399966,2.484349,3.627974,4.712395,2.424340,0.000000,0.000075,-0.000000,-0.000000,0.000000,0.000000
0.701813,0.003906,0.003906,0.003906,-0.000000,0.000000,-0.000000,0.000000,-0.191635,-0.484633,0.162654,-0.191627,-0.484631,0.162645,0.000001,0.000001,-0.000032,0.000032,0.853534,-1.399910,2.484353,3.627990,4.712371,2.424335,0.000000,0.000064,-0.000000,-0.000000,0.000000,0.000000
0.721867,0.003906,0.003906,0.003906,-0.000000,0.000000,-0.000000,0.000000,-0.191635,-0.484633,0.162654,-0.191612,-0.484614,0.162666,0.000001,0.000001,-0.000028,0.000028,0.853534,-1.399983,2.484393,3.627982,4.712371,2.424291,0.000000,0.000056,-0.000000,0.000000,0.000000,0.000000
0.741922,0.003906,0.003906,0.003906,-0.000000,0.000000,-0.000000,0.000000,-0.191635,-0.484633,0.162654,-0.191603,-0.484618,0.162646,-0.000005,-0.000006,-0.000016,0.000018,0.853558,-1.399938,2.484393,3.627970,4.712351,2.424291,0.000000,0.000050,-0.000000,-0.000071,0.000000,0.000000
0.761944,0.003906,0.003906,0.003906,-0.000000,0.000000,-0.000000,0.000000,-0.191635,-0.484633,0.162654,-0.191631,-0.484630,0.162646,-0.000005,-0.000005,0.000007,0.000010,0.853518,-1.399910,2.484358,3.627974,4.712408,2.424311,0.000000,0.000000,-0.000000,-0.000061,0.000000,0.000000
0.781998,0.003906,0.003906,0.003906,-0.000000,0.000000,-0.000000,0.000000,-0.191635,-0.484633,0.162654,-0.191626,-0.484635,0.162656,-0.000005,-0.000006,0.000008,0.000011,0.853546,-1.399926,2.484350,3.627978,4.712351,2.424295,0.000000,0.000000,-0.000000,-0.000065,0.000000,0.000000
0.802052,0.003906,0.003906,0.003906,-0.000000,0.000000,-0.000000,0.000000,-0.191635,-0.484633,0.162654,-0.191616,-0.484618,0.162635,-0.000000,-0.000000,0.000000,0.000000,0.853526,-1.399910,2.484385,3.627978,4.712403,2.424327,0.000000,0.000000,-0.000000,-0.000000,0.000000,0.000000
0.822106,0.003906,0.003906,0.003906,-0.000000,0.000000,-0.000000,0.000000,-0.191635,-0.484633,0.162654,-0.191626,-0.484635,0.162659,0.000000,0.000000,-0.000000,0.000000,0.853530,-1.399934,2.484357,3.627958,4.712420,2.424331,0.000000,0.000000,-0.000000,-0.000000,0.000000,0.000000
0.842157,0.003906,-0.796082,0.003906,-0.000000,-0.796082,-0.000000,0.796082,-0.191635,-0.484792,0.162654,-0.191645,-0.484623,0.162644,-0.000006,-0.000007,0.000010,0.000014,0.853482,-1.399910,2.484366,3.627958,4.712428,2.424344,0.000000,0.000000,-0.000000,-0.000085,0.000000,0.000000
0.862210,0.003906,-1.000000,0.003906,-0.000000,-1.000000,-0.000000,1.000000,-0.191635,-0.484992,0.162654,-0.191622,-0.484625,0.162652,-0.000005,-0.000006,0.000009,0.000012,0.853534,-1.399930,2.484373,3.627954,4.712371,2.424256,0.000000,0.000000,-0.000000,-0.000071,0.000000,0.000000
0.882263,0.003906,-1.000000,0.003906,-0.000000,-1.000000,-0.000000,1.000000,-0.191635,-0.485192,0.162654,-0.191614,-0.484639,0.162652,-0.000006,-0.000006,0.000009,0.000012,0.853558,-1.399922,2.484353,3.627982,4.712399,2.424331,0.000000,0.000000,-0.000000,-0.000074,0.000000,0.000000
0.902317,0.003906,-1.000000,0.003906,-0.000000,-1.000000,-0.000000,1.000000,-0.191635,-0.485392,0.162654,-0.191649,-0.484627,0.162641,-0.000005,-0.000006,0.000008,0.000011,0.853494,-1.399894,2.484349,3.627970,4.712375,2.424364,0.000000,0.000000,-0.000000,-0.000065,0.000000,0.000000
0.922373,0.003906,-1.000000,0.003906,-0.000000,-1.000000,-0.000000,1.000000,-0.191635,-0.485592,0.162654,-0.191635,-0.484621,0.162642,-0.000000,-0.000000,0.000000,0.000000,0.853510,-1.399910,2.484366,3.627982,4.712367,2.424328,0.000000,0.000000,-0.000000,-0.000000,0.000000,0.000000
0.942426,0.003906,-1.000000,0.003906,-0.000000,-1.000000,-0.000000,1.000000,-0.191635,-0.485792,0.162654,-0.191631,-0.484634,0.162650,-0.000000,-0.000000,0.000000,0.000000,0.853534,-1.399910,2.484354,3.627950,4.712367,2.424304,0.000000,0.000000,-0.000000,-0.000000,0.000000,0.000000
0.962480,0.003906,-1.000000,0.003906,-0.000000,-1.000000,-0.000000,1.000000,-0.191635,-0.485992,0.162654,-0.191619,-0.484634,0.162650,0.000000,0.000000,0.000000,0.000000,0.853546,-1.399918,2.484361,3.627962,4.712391,2.424311,0.000000,0.000000,-0.000000,0.000000,0.000000,0.000000
0.982533,0.003906,-1.000000,0.003906,-0.000000,-1.000000,-0.000000,1.000000,-0.191635,-0.486192,0.162654,-0.191638,-0.484641,0.162645,0.000000,0.000000,0.000000,0.000000,0.853527,-1.399890,2.484338,3.627958,4.712383,2.424279,0.000000,0.000000,-0.000000,0.000000,0.000000,0.000000
1.002586,0.003906,-1.000000,0.003906,-0.000000,-1.000000,-0.000000,1.000000,-0.191635,-0.486392,0.162654,-0.191653,-0.484628,0.162653,-0.000004,-0.000005,0.000006,0.000009,0.853494,-1.399910,2.484354,3.627929,4.712355,2.424299,0.000000,0.000000,-0.000000,-0.000053,0.000000,0.000000
1.022640,0.003906,-1.000000,0.003906,-0.000000,-1.000000,-0.000000,1.000000,-0.191635,-0.486592,0.162654,-0.191618,-0.484614,0.162627,-0.000000,-0.000000,0.000000,0.000000,0.853510,-1.399898,2.484397,3.627954,4.712432,2.424268,0.000000,0.000000,-0.000000,-0.000000,0.000000,0.000000
1.042693,0.003906,-1.000000,0.003906,-0.000000,-1.000000,-0.000000,1.000000,-0.191635,-0.486792,0.162654,-0.191662,-0.484630,0.162674,-0.000000,-0.000000,0.000000,0.000000,0.853482,-1.399947,2.484345,3.627929,4.712358,2.424299,0.000000,0.000000,-0.000000,-0.000000,0.000000,0.000000
1.062746,0.003906,-1.000000,0.003906,-0.000000,-1.000000,-0.000000,1.000000,-0.191635,-0.486992,0.162654,-0.191622,-0.484625,0.162616,0.000000,0.000000,0.000000,0.000000,0.853530,-1.399866,2.484357,3.628039,4.712388,2.424307,0.000000,0.000000,-0.000000,0.000000,0.000000,0.000000
1.082799,0.003906,-1.000000,0.003906,-0.000000,-1.000000,-0.000000,1.000000,-0.191635,-0.487192,0.162654,-0.191624,-0.484646,0.162658,0.000000,0.000000,0.000000,0.000000,0.853558,-1.399914,2.484341,3.627942,4.712371,2.424312,0.000000,0.000000,-0.000000,0.000000,0.000000,0.000000
1.102853,0.003906,-1.000000,0.003906,-0.000000,-1.000000,-0.000000,1.000000,-0.191635,-0.487392,0.162654,-0.191636,-0.484624,0.162645,0.000000,0.000000,0.000000,0.000000,0.853510,-1.399910,2.484366,3.627958,4.712371,2.424331,0.000000,0.000000,-0.000000,0.000000,0.000000,0.000000
1.122907,0.003906,-1.000000,0.003906,-0.000000,-1.000000,-0.000000,1.000000,-0.191635,-0.487592,0.162654,-0.191648,-0.484629,0.162653,0.000000,0.000000,0.000000,0.000000,0.853502,-1.399914,2.484349,3.627958,4.712354,2.424331,0.000000,0.000000,-0.000000,0.000000,0.000000,0.000000
1.142961,0.003906,-1.000000,0.003906,-0.000000,-1.000000,-0.000000,1.000000,-0.191635,-0.487792,0.162654,-0.191608,-0.484624,0.162625,-0.000625,-0.000717,0.000351,0.001014,0.853550,-1.399886,2.484382,3.627966,4.712388,2.424331,0.000000,0.000501,-0.001544,0.000000,0.000000,0.000000
1.163016,0.003906,-1.000000,0.003906,-0.000000,-1.000000,-0.000000,1.000000,-0.191635,-0.487992,0.162654,-0.191649,-0.484640,0.162632,-0.000697,-0.001631,-0.000296,0.001798,0.853510,-1.399858,2.484329,3.627966,4.712383,2.424323,0.001113,0.003057,-0.003109,-0.000021,0.000000,0.004055
1.183070,0.003906,-1.000000,0.003906,-0.000000,-1.000000,-0.000000,1.000000,-0.191635,-0.488192,0.162654,-0.191659,-0.484701,0.162630,0.000185,-0.003409,0.000258,0.003424,0.853574,-1.399770,2.484229,3.627946,4.712391,2.424423,0.004845,0.003730,-0.005402,-0.000000,0.000000,0.003740
1.203124,0.003906,-1.000000,0.003906,-0.000000,-1.000000,-0.000000,1.000000,-0.191635,-0.488392,0.162654,-0.191647,-0.484770,0.162636,0.000461,-0.003443,0.000314,0.003488,0.853682,-1.399702,2.484122,3.627962,4.712403,2.424483,0.005312,0.003517,-0.005276,-0.000000,0.000000,0.003352
1.223160,0.003906,-1.000000,0.003906,-0.000000,-1.000000,-0.000000,1.000000,-0.191635,-0.488592,0.162654,-0.191649,-0.484843,0.162653,0.000004,-0.003923,0.000447,0.003948,0.853778,-1.399647,2.483994,3.628010,4.712399,2.424543,0.005252,0.004027,-0.006450,0.000591,0.000000,0.004458
1.243215,0.003906,-1.000000,0.003906,-0.000000,-1.000000,-0.000000,1.000000,-0.191635,-0.488792,0.162654,-0.191633,-0.484921,0.162657,0.000010,-0.004915,0.000468,0.004937,0.853906,-1.399567,2.483874,3.628034,4.712399,2.424627,0.006586,0.005236,-0.008078,0.000716,0.000000,0.007304
1.263272,0.003906,-1.000000,0.003906,-0.000000,-1.000000,-0.000000,1.000000,-0.191635,-0.488992,0.162654,-0.191642,-0.485024,0.162663,-0.000176,-0.006766,0.000427,0.006782,0.854034,-1.399438,2.483706,3.628002,4.712383,2.424807,0.008772,0.007754,-0.011259,0.000998,0.000000,0.009826
1.283330,0.003906,-1.000000,0.003906,-0.000000,-1.000000,-0.000000,1.000000,-0.191635,-0.489192,0.162654,-0.191636,-0.485177,0.162675,0.000218,-0.006854,-0.000417,0.006870,0.854253,-1.399275,2.483450,3.628055,4.712363,2.424986,0.009490,0.008403,-0.013116,0.011373,0.000000,0.009744
1.303386,0.003906,-1.000000,0.003906,-0.000000,-1.000000,-0.000000,1.000000,-0.191635,-0.489392,0.162654,-0.191620,-0.485285,0.162659,0.000385,-0.006655,-0.000242,0.006670,0.854425,-1.399127,2.483254,3.628218,4.712347,2.425200,0.009474,0.008389,-0.011377,0.004341,0.000000,0.010056
1.323442,0.003906,-1.000000,0.003906,-0.000000,-1.000000,-0.000000,1.000000,-0.191635,-0.489592,0.162654,-0.191619,-0.485428,0.162675,0.000245,-0.006288,-0.000489,0.006311,0.854609,-1.398983,2.483022,3.628242,4.712383,2.425409,0.008766,0.008409,-0.011067,0.005320,0.000000,0.008681
1.343497,0.003906,-1.000000,0.003906,-0.000000,-1.000000,-0.000000,1.000000,-0.191635,-0.489792,0.162654,-0.191648,-0.485566,0.162659,0.000904,-0.007858,-0.000953,0.007967,0.854761,-1.398771,2.482742,3.628411,4.712330,2.425632,0.011867,0.010873,-0.013548,0.007080,0.000000,0.011333
1.363554,0.003906,-1.000000,0.003906,-0.000000,-1.000000,-0.000000,1.000000,-0.191635,-0.489992,0.162654,-0.191621,-0.485775,0.162649,0.000453,-0.008794,-0.000653,0.008829,0.855069,-1.398506,2.482410,3.628478,4.712379,2.425896,0.012415,0.011688,-0.015307,0.006900,0.000000,0.011336
1.383609,0.003906,-1.000000,0.003906,-0.000000,-1.000000,-0.000000,1.000000,-0.191635,-0.490192,0.162654,-0.191643,-0.485935,0.162624,0.000256,-0.008657,-0.000563,0.008679,0.855252,-1.398251,2.482111,3.628603,4.712367,2.426059,0.011925,0.011622,-0.014828,0.004854,0.000000,0.012074
1.403665,0.003906,-1.000000,0.003906,-0.000000,-1.000000,-0.000000,1.000000,-0.191635,-0.490392,0.162654,-0.191601,-0.486105,0.162602,0.000292,-0.008854,-0.000216,0.008862,0.855540,-1.398015,2.481850,3.628663,4.712379,2.426322,0.012235,0.011140,-0.015093,0.004782,0.000000,0.011895
1.423701,0.003906,-1.000000,0.003906,-0.000000,-1.000000,-0.000000,1.000000,-0.191635,-0.490592,0.162654,-0.191643,-0.486292,0.162611,0.000820,-0.010020,0.000040,0.010053,0.855719,-1.397783,2.481507,3.628742,4.712395,2.426574,0.014586,0.011761,-0.016759,0.005467,0.000000,0.013491
1.443754,0.003906,-1.000000,0.003906,-0.000000,-1.000000,-0.000000,1.000000,-0.191635,-0.490792,0.162654,-0.191585,-0.486511,0.162609,0.000935,-0.010165,-0.000262,0.010211,0.856091,-1.397540,2.481175,3.628826,4.712432,2.426861,0.014945,0.012411,-0.017136,0.006520,0.000000,0.014236
1.463807,0.003906,-1.000000,0.003906,-0.000000,-1.000000,-0.000000,1.000000,-0.191635,-0.490992,0.162654,-0.191608,-0.486697,0.162631,0.000454,-0.009856,-0.000473,0.009878,0.856315,-1.397340,2.480844,3.628894,4.712379,2.427116,0.013788,0.012786,-0.016784,0.005591,0.000000,0.013309
1.483861,0.003906,-1.000000,0.003906,-0.000000,-1.000000,-0.000000,1.000000,-0.191635,-0.491192,0.162654,-0.191605,-0.486902,0.162598,0.000465,-0.009702,-0.000546,0.009728,0.856599,-1.397024,2.480479,3.629050,4.712355,2.427376,0.013592,0.012681,-0.016623,0.006091,0.000000,0.012759
1.503871,0.003906,-1.000000,0.003906,-0.000000,-1.000000,-0.000000,1.000000,-0.191635,-0.491392,0.162654,-0.191575,-0.487086,0.162569,-0.000033,-0.010730,0.000370,0.010736,0.856883,-1.396756,2.480180,3.629155,4.712383,2.427615,0.014184,0.012355,-0.018530,0.005941,0.000000,0.014542
1.523927,0.003906,-1.000000,0.003906,-0.000000,-1.000000,-0.000000,1.000000,-0.191635,-0.491592,0.162654,-0.191597,-0.487347,0.162647,-0.000187,-0.011909,0.000966,0.011949,0.857190,-1.396585,2.479732,3.629246,4.712399,2.427963,0.015498,0.012612,-0.020679,0.006856,0.000000,0.015339
1.543935,0.003906,-1.000000,0.003906,-0.000000,-1.000000,-0.000000,1.000000,-0.191635,-0.491792,0.162654,-0.191641,-0.487564,0.162633,-0.001212,-0.012368,0.001378,0.012504,0.857410,-1.396268,2.479327,3.629370,4.712403,2.428246,0.014527,0.012934,-0.021904,0.006036,0.000000,0.015028
1.563989,0.003906,-1.000000,0.003906,-0.000000,-1.000000,-0.000000,1.000000,-0.191635,-0.491992,0.162654,-0.191641,-0.487802,0.162669,-0.000945,-0.011522,0.000885,0.011595,0.857733,-1.396049,2.478920,3.629479,4.712371,2.428533,0.013802,0.012760,-0.020357,0.005858,0.000000,0.014576
1.584043,0.003906,-1.000000,0.003906,-0.000000,-1.000000,-0.000000,1.000000,-0.191635,-0.492192,0.162654,-0.191688,-0.488061,0.162712,-0.000146,-0.010399,-0.000083,0.010400,0.858001,-1.395789,2.478465,3.629522,4.712379,2.428800,0.013526,0.012918,-0.018095,0.005945,0.000000,0.012191
1.604097,0.003906,-1.000000,0.003906,-0.000000,-1.000000,-0.000000,1.000000,-0.191635,-0.492392,0.162654,-0.191661,-0.488241,0.162686,0.000447,-0.010428,-0.000290,0.010442,0.858285,-1.395533,2.478160,3.629670,4.712359,2.429040,0.014464,0.013032,-0.017878,0.006486,0.000000,0.013186
1.624150,0.003906,-1.000000,0.003906,-0.000000,-1.000000,-0.000000,1.000000,-0.191635,-0.492592,0.162654,-0.191672,-0.488454,0.162649,0.000124,-0.010435,-0.000370,0.010442,0.858549,-1.395189,2.477784,3.629779,4.712363,2.429339,0.013967,0.013347,-0.018133,0.006664,0.000000,0.014949
1.644164,0.003906,-1.000000,0.003906,-0.000000,-1.000000,-0.000000,1.000000,-0.191635,-0.492792,0.162654,-0.191693,-0.488664,0.162694,-0.000222,-0.010696,-0.000024,0.010698,0.858788,-1.395013,2.477417,3.629862,4.712388,2.429675,0.013773,0.013225,-0.018586,0.005727,0.000000,0.013462
1.664217,0.003906,-1.000000,0.003906,-0.000000,-1.000000,-0.000000,1.000000,-0.191635,-0.492992,0.162654,-0.191647,-0.488897,0.162705,0.000195,-0.010310,-0.000150,0.010313,0.859160,-1.394774,2.477053,3.629958,4.712411,2.429878,0.013890,0.012826,-0.017624,0.005306,0.000000,0.013948
1.684274,0.003906,-1.000000,0.003906,-0.000000,-1.000000,-0.000000,1.000000,-0.191635,-0.493192,0.162654,-0.191674,-0.489086,0.162692,0.000600,-0.009288,-0.000918,0.009352,0.859376,-1.394506,2.476701,3.630095,4.712379,2.430141,0.013154,0.012951,-0.015661,0.004823,0.000000,0.014062
1.704329,0.003906,-1.000000,0.003906,-0.000000,-1.000000,-0.000000,1.000000,-0.191635,-0.493392,0.162654,-0.191683,-0.489244,0.162634,0.000642,-0.009141,-0.000405,0.009173,0.859559,-1.394189,2.476425,3.630162,4.712428,2.430449,0.013017,0.011674,-0.015380,0.004901,0.000000,0.013725
1.724387,0.003906,-1.000000,0.003906,-0.000000,-1.000000,-0.000000,1.000000,-0.191635,-0.493592,0.162654,-0.191627,-0.489464,0.162638,0.001529,-0.009894,-0.000350,0.010017,0.859943,-1.393954,2.476081,3.630278,4.712388,2.430727,0.015353,0.012048,-0.016085,0.005159,0.000000,0.014334
1.744444,0.003906,-1.000000,0.003906,-0.000000,-1.000000,-0.000000,1.000000,-0.191635,-0.493792,0.162654,-0.191630,-0.489643,0.162620,0.000718,-0.010137,-0.000343,0.010168,0.860174,-1.393698,2.475766,3.630383,4.712383,2.431028,0.014425,0.012730,-0.017025,0.005309,0.000000,0.013795
1.764502,0.003906,-1.000000,0.003906,-0.000000,-1.000000,-0.000000,1.000000,-0.191635,-0.493992,0.162654,-0.191608,-0.489854,0.162628,0.000635,-0.008960,-0.000618,0.009003,0.860486,-1.393466,2.475422,3.630469,4.712379,2.431275,0.012740,0.011788,-0.015279,0.005836,0.000000,0.012482
1.784557,0.003906,-1.000000,0.003906,-0.000000,-1.000000,-0.000000,1.000000,-0.191635,-0.494192,0.162654,-0.191577,-0.490018,0.162598,0.000402,-0.009139,-0.000403,0.009157,0.860750,-1.393222,2.475150,3.630591,4.712371,2.431538,0.012614,0.011793,-0.015504,0.004732,0.000000,0.011960
1.804611,0.003906,-1.000000,0.003906,-0.000000,-1.000000,-0.000000,1.000000,-0.191635,-0.494392,0.162654,-0.191594,-0.490232,0.162627,0.000710,-0.009793,-0.000441,0.009829,0.861006,-1.393006,2.474782,3.630646,4.712371,2.431826,0.013934,0.012424,-0.016611,0.006017,0.000000,0.014377
1.824666,0.003906,-1.000000,0.003906,-0.000000,-1.000000,-0.000000,1.000000,-0.191635,-0.494592,0.162654,-0.191550,-0.490405,0.162619,-0.000531,-0.011232,0.000656,0.011264,0.861294,-1.392807,2.474502,3.630794,4.712399,2.432045,0.013915,0.012585,-0.019717,0.006242,0.000000,0.013565
1.844723,0.003906,-1.000000,0.003906,-0.000000,-1.000000,-0.000000,1.000000,-0.191635,-0.494792,0.162654,-0.191603,-0.490661,0.162661,-0.001489,-0.011186,0.001179,0.011347,0.861553,-1.392559,2.474019,3.630984,4.712379,2.432325,0.012382,0.012102,-0.019883,0.004418,0.000000,0.012833
1.864780,0.003906,-1.000000,0.003906,-0.000000,-1.000000,-0.000000,1.000000,-0.191635,-0.494992,0.162654,-0.191650,-0.490883,0.162691,-0.000744,-0.010109,0.000366,0.010143,0.861769,-1.392315,2.473634,3.630966,4.712395,2.432596,0.012098,0.011998,-0.017774,0.004782,0.000000,0.011835
1.884835,0.003906,-1.000000,0.003906,-0.000000,-1.000000,-0.000000,1.000000,-0.191635,-0.495192,0.162654,-0.191643,-0.491081,0.162665,0.000290,-0.010023,-0.000259,0.010031,0.862032,-1.392023,2.473298,3.631062,4.712420,2.432844,0.013555,0.012664,-0.017007,0.004729,0.000000,0.013259
1.904885,0.003906,-1.000000,0.003906,-0.000000,-1.000000,-0.000000,1.000000,-0.191635,-0.495392,0.162654,-0.191667,-0.491298,0.162691,0.000642,-0.009684,-0.000934,0.009750,0.862288,-1.391803,2.472902,3.631215,4.712383,2.433148,0.013637,0.013391,-0.016375,0.005284,0.000000,0.013253
1.924931,0.003906,-1.000000,0.003906,-0.000000,-1.000000,-0.000000,1.000000,-0.191635,-0.495592,0.162654,-0.191638,-0.491491,0.162655,-0.000098,-0.009875,-0.000538,0.009890,0.862588,-1.391499,2.472596,3.631254,4.712371,2.433431,0.012750,0.013173,-0.017153,0.005390,0.000000,0.013140
1.944986,0.003906,-1.000000,0.003906,-0.000000,-1.000000,-0.000000,1.000000,-0.191635,-0.495792,0.162654,-0.191664,-0.491710,0.162688,-0.000152,-0.010089,-0.000046,0.010090,0.862831,-1.391288,2.472208,3.631350,4.712383,2.433626,0.012937,0.012547,-0.017337,0.004471,0.000000,0.012576
1.965040,0.003906,-1.000000,0.003906,-0.000000,-1.000000,-0.000000,1.000000,-0.191635,-0.495992,0.162654,-0.191672,-0.491902,0.162658,-0.000257,-0.009972,0.000215,0.009977,0.863062,-1.390991,2.471867,3.631478,4.712415,2.433869,0.012616,0.011881,-0.017253,0.004776,0.000000,0.011542
1.985097,0.003906,-1.000000,0.003906,-0.000000,-1.000000,-0.000000,1.000000,-0.191635,-0.496192,0.162654,-0.191649,-0.492072,0.162681,0.000266,-0.009977,0.000329,0.009986,0.863322,-1.390840,2.471595,3.631542,4.712399,2.434113,0.013413,0.011402,-0.016911,0.004700,0.000000,0.011417
2.005154,0.003906,-1.000000,0.003906,-0.000000,-1.000000,-0.000000,1.000000,-0.191635,-0.496392,0.162654,-0.191686,-0.492276,0.162656,-0.000192,-0.009826,-0.000015,0.009828,0.863538,-1.390520,2.471215,3.631651,4.712371,2.434393,0.012508,0.012127,-0.016996,0.004810,0.000000,0.012603
2.025159,0.003906,-1.000000,0.003906,-0.000000,-1.000000,-0.000000,1.000000,-0.191635,-0.496592,0.162654,-0.191677,-0.492503,0.162700,-0.000208,-0.009690,-0.000464,0.009703,0.863845,-1.390332,2.470847,3.631694,4.712383,2.434624,0.012296,0.012769,-0.017030,0.005980,0.000000,0.013396
2.045213,0.003906,-1.000000,0.003906,-0.000000,-1.000000,-0.000000,1.000000,-0.191635,-0.496792,0.162654,-0.191676,-0.492672,0.162672,0.000714,-0.009424,-0.000545,0.009467,0.864061,-1.390077,2.470544,3.631847,4.712403,2.434888,0.013348,0.012197,-0.015910,0.005391,0.000000,0.013297
2.065268,0.003906,-1.000000,0.003906,-0.000000,-1.000000,-0.000000,1.000000,-0.191635,-0.496992,0.162654,-0.191637,-0.492856,0.162661,0.001253,-0.008433,-0.000794,0.008563,0.864365,-1.389849,2.470248,3.631954,4.712388,2.435135,0.012873,0.011139,-0.014060,0.005859,0.000000,0.012192
2.085322,0.003906,-1.000000,0.003906,-0.000000,-1.000000,-0.000000,1.000000,-0.191635,-0.497192,0.162654,-0.191625,-0.493016,0.162638,0.000819,-0.008559,-0.000753,0.008631,0.864593,-1.389617,2.469973,3.632066,4.712375,2.435395,0.012369,0.011417,-0.014552,0.005943,0.000000,0.013699
2.105379,0.003906,-1.000000,0.003906,-0.000000,-1.000000,-0.000000,1.000000,-0.191635,-0.497392,0.162654,-0.191632,-0.493208,0.162635,0.000518,-0.009912,-0.000582,0.009943,0.864828,-1.389377,2.469632,3.632198,4.712395,2.435694,0.013660,0.012960,-0.016874,0.005609,0.000000,0.014297
2.125433,0.003906,-1.000000,0.003906,-0.000000,-1.000000,-0.000000,1.000000,-0.191635,-0.497592,0.162654,-0.191585,-0.493411,0.162602,-0.000078,-0.010670,0.000231,0.010673,0.865164,-1.389080,2.469316,3.632270,4.712383,2.435973,0.013726,0.012537,-0.018456,0.005712,0.000000,0.014437
2.145478,0.003906,-1.000000,0.003906,-0.000000,-1.000000,-0.000000,1.000000,-0.191635,-0.497792,0.162654,-0.191589,-0.493642,0.162627,-0.000606,-0.010541,0.000113,0.010559,0.865463,-1.388845,2.468920,3.632358,4.712363,2.436220,0.012744,0.012964,-0.018407,0.004736,0.000000,0.013667
2.165532,0.003906,-1.000000,0.003906,-0.000000,-1.000000,-0.000000,1.000000,-0.191635,-0.497992,0.162654,-0.191613,-0.493856,0.162649,-0.000337,-0.011145,0.000360,0.011156,0.865699,-1.388621,2.468537,3.632486,4.712379,2.436541,0.013925,0.013041,-0.019300,0.005249,0.000000,0.013173
2.185587,0.003906,-1.000000,0.003906,-0.000000,-1.000000,-0.000000,1.000000,-0.191635,-0.498192,0.162654,-0.191611,-0.494080,0.162648,0.000669,-0.010719,-0.000903,0.010778,0.865991,-1.388345,2.468157,3.632579,4.712387,2.436759,0.014894,0.014465,-0.018283,0.006519,0.000000,0.013733
2.205644,0.003906,-1.000000,0.003906,-0.000000,-1.000000,-0.000000,1.000000,-0.191635,-0.498392,0.162654,-0.191600,-0.494307,0.162644,0.000662,-0.011000,-0.000499,0.011032,0.866306,-1.388065,2.467769,3.632706,4.712371,2.437095,0.015236,0.014112,-0.018497,0.005299,0.000000,0.014558
2.225698,0.003906,-1.000000,0.003906,-0.000000,-1.000000,-0.000000,1.000000,-0.191635,-0.498592,0.162654,-0.191608,-0.494493,0.162623,-0.000181,-0.010587,0.000282,0.010592,0.866541,-1.387790,2.467446,3.632774,4.712343,2.437391,0.013409,0.012391,-0.018336,0.005440,0.000000,0.012539
2.245752,0.003906,-1.000000,0.003906,-0.000000,-1.000000,-0.000000,1.000000,-0.191635,-0.498792,0.162654,-0.191610,-0.494719,0.162635,-0.001273,-0.011165,0.001421,0.011327,0.866825,-1.387538,2.467060,3.632874,4.712359,2.437582,0.012484,0.011479,-0.019609,0.003871,0.000000,0.012800
2.265807,0.003906,-1.000000,0.003906,-0.000000,-1.000000,-0.000000,1.000000,-0.191635,-0.498992,0.162654,-0.191629,-0.494961,0.162683,-0.000775,-0.010930,0.000724,0.010981,0.867105,-1.387330,2.466638,3.632982,4.712379,2.437890,0.012927,0.012092,-0.019472,0.006674,0.000000,0.013401
2.285863,0.003906,-1.000000,0.003906,-0.000000,-1.000000,-0.000000,1.000000,-0.191635,-0.499192,0.162654,-0.191624,-0.495161,0.162660,-0.000202,-0.010614,0.000396,0.010623,0.867368,-1.387046,2.466291,3.633111,4.712387,2.438165,0.013380,0.012167,-0.018444,0.005734,0.000000,0.013790
2.305920,0.003906,-1.000000,0.003906,-0.000000,-1.000000,-0.000000,1.000000,-0.191635,-0.499392,0.162654,-0.191663,-0.495396,0.162703,-0.000239,-0.010067,-0.000065,0.010071,0.867600,-1.386834,2.465865,3.633247,4.712440,2.438429,0.012610,0.012394,-0.017681,0.006140,0.000000,0.014041
2.325973,0.003906,-1.000000,0.003906,-0.000000,-1.000000,-0.000000,1.000000,-0.191635,-0.499592,0.162654,-0.191684,-0.495589,0.162705,-0.000493,-0.009718,0.000240,0.009734,0.867836,-1.386582,2.465522,3.633298,4.712359,2.438663,0.011765,0.011537,-0.017091,0.005254,0.000000,0.012680
2.346030,0.003906,-1.000000,0.003906,-0.000000,-1.000000,-0.000000,1.000000,-0.191635,-0.499792,0.162654,-0.191685,-0.495787,0.162735,0.000059,-0.009905,-0.000528,0.009919,0.868087,-1.386403,2.465186,3.633382,4.712367,2.438915,0.012835,0.013031,-0.017165,0.005644,0.000000,0.012992
2.366087,0.003906,-1.000000,0.003906,-0.000000,-1.000000,-0.000000,1.000000,-0.191635,-0.499992,0.162654,-0.191680,-0.495944,0.162661,0.000994,-0.009852,-0.000982,0.009950,0.868299,-1.386071,2.464898,3.633547,4.712356,2.439195,0.014181,0.013390,-0.016590,0.006028,0.000000,0.011813
2.386145,0.003906,-1.000000,0.003906,-0.000000,-1.000000,-0.000000,1.000000,-0.191635,-0.500000,0.162654,-0.191618,-0.496152,0.162653,0.000724,-0.009309,-0.000800,0.009371,0.868654,-1.385835,2.464579,3.633659,4.712379,2.439451,0.013063,0.012512,-0.015768,0.005500,0.000000,0.012063
2.406162,-0.160797,-1.000000,0.003906,0.160797,-1.000000,-0.000000,1.012845,-0.191603,-0.500000,0.162654,-0.191658,-0.496364,0.162703,-0.000322,-0.009301,-0.000357,0.009314,0.868866,-1.385651,2.464202,3.633706,4.712379,2.439637,0.011457,0.012230,-0.016154,0.004238,0.000000,0.012373
2.426219,-0.231384,-1.000000,0.003906,0.231384,-1.000000,-0.000000,1.026420,-0.191557,-0.500000,0.162654,-0.191667,-0.496555,0.162699,0.000175,-0.009615,-0.000675,0.009640,0.869101,-1.385411,2.463859,3.633843,4.712371,2.439845,0.012605,0.012839,-0.016743,0.006237,0.000000,0.012520
2.446274,-0.325500,-1.000000,0.003906,0.325500,-1.000000,-0.000000,1.051642,-0.191492,-0.500000,0.162654,-0.191668,-0.496760,0.162691,0.000415,-0.009633,-0.000853,0.009680,0.869353,-1.385144,2.463514,3.633914,4.712403,2.440169,0.012985,0.013169,-0.016503,0.005540,0.000000,0.012727
2.466329,-0.364716,-1.000000,0.003906,0.364716,-1.000000,-0.000000,1.064433,-0.191419,-0.500000,0.162654,-0.191635,-0.496919,0.162665,0.000501,-0.008921,-0.000599,0.008955,0.869613,-1.384916,2.463252,3.634022,4.712379,2.440368,0.012194,0.011749,-0.015200,0.005133,0.000000,0.013200
2.486388,-0.490204,-1.000000,0.003906,0.490204,-1.000000,-0.000000,1.113687,-0.191321,-0.500000,0.162654,-0.191633,-0.497097,0.162663,0.000739,-0.008554,-0.000489,0.008600,0.869841,-1.384696,2.462947,3.634110,4.712395,2.440624,0.012079,0.011007,-0.014321,0.004455,0.000000,0.012775
2.506444,-0.568634,-0.960785,0.003906,0.568634,-0.960785,-0.000000,1.116446,-0.191207,-0.500000,0.162654,-0.191590,-0.497248,0.162608,0.000921,-0.009018,-0.000797,0.009099,0.870109,-1.384424,2.462704,3.634219,4.712359,2.440899,0.012942,0.012018,-0.015197,0.005616,0.000000,0.013021
2.526499,-0.615692,-0.921570,0.003906,0.615692,-0.921570,-0.000000,1.108318,-0.191084,-0.500000,0.162654,-0.191559,-0.497445,0.162602,0.000709,-0.009476,-0.000849,0.009541,0.870397,-1.384192,2.462384,3.634331,4.712403,2.441167,0.013199,0.012822,-0.016045,0.005415,0.000000,0.013347
2.546553,-0.670593,-0.874512,0.003906,0.670593,-0.874512,-0.000000,1.102028,-0.190950,-0.500000,0.162654,-0.191578,-0.497646,0.162586,-0.000068,-0.010220,-0.000372,0.010227,0.870619,-1.383908,2.462024,3.634446,4.712428,2.441430,0.012963,0.013100,-0.017844,0.006110,0.000000,0.013740
2.566611,-0.694122,-0.850983,0.003906,0.694122,-0.850983,-0.000000,1.098170,-0.190811,-0.500000,0.162654,-0.191623,-0.497848,0.162626,-0.000393,-0.009997,0.000148,0.010006,0.870819,-1.383721,2.461648,3.634542,4.712387,2.441678,0.012176,0.011997,-0.017504,0.005294,0.000000,0.012236
2.586668,-0.733337,-0.803925,0.003906,0.733337,-0.803925,-0.000000,1.088154,-0.190664,-0.500000,0.162654,-0.191600,-0.498060,0.162617,-0.000846,-0.011367,0.000812,0.011427,0.871123,-1.383456,2.461297,3.634655,4.712395,2.441950,0.013228,0.012603,-0.019963,0.005192,0.000000,0.012754
2.606724,-0.756866,-0.772552,0.003906,0.756866,-0.772552,-0.000000,1.081519,-0.190513,-0.500000,0.162654,-0.191618,-0.498295,0.162637,-0.000476,-0.011619,0.000463,0.011638,0.871403,-1.383201,2.460880,3.634771,4.712359,2.442209,0.014100,0.013315,-0.020426,0.006611,0.000000,0.014566
2.626780,-0.764709,-0.764709,0.003906,0.764709,-0.764709,-0.000000,1.081463,-0.190360,-0.500000,0.162654,-0.191628,-0.498527,0.162632,-0.000051,-0.011244,0.000304,0.011248,0.871682,-1.382905,2.460477,3.634875,4.712371,2.442460,0.014254,0.013059,-0.019351,0.005489,0.000000,0.014574
2.646838,-0.764709,-0.764709,0.003906,0.764709,-0.764709,-0.000000,1.081463,-0.190207,-0.500000,0.162654,-0.191628,-0.498760,0.162659,0.000220,-0.009773,-0.000365,0.009783,0.871974,-1.382673,2.460089,3.634938,4.712391,2.442727,0.012780,0.012413,-0.016855,0.005646,0.000000,0.012557
2.666892,-0.764709,-0.764709,0.003906,0.764709,-0.764709,-0.000000,1.081463,-0.190054,-0.500000,0.162654,-0.191645,-0.498939,0.162660,0.000295,-0.009274,-0.000589,0.009297,0.872173,-1.382457,2.459757,3.635099,4.712403,2.442959,0.012251,0.012283,-0.015842,0.004752,0.000000,0.012734
2.686948,-0.764709,-0.764709,0.003906,0.764709,-0.764709,-0.000000,1.081463,-0.189901,-0.500000,0.162654,-0.191631,-0.499128,0.162654,0.000373,-0.008884,-0.000075,0.008892,0.872437,-1.382222,2.459441,3.635191,4.712391,2.443215,0.011865,0.010770,-0.015013,0.004133,0.000000,0.012034
2.707005,-0.764709,-0.764709,0.003906,0.764709,-0.764709,-0.000000,1.081463,-0.189748,-0.500000,0.162654,-0.191609,-0.499273,0.162603,0.000261,-0.008282,0.000610,0.008309,0.872664,-1.381948,2.459205,3.635227,4.712356,2.443450,0.010924,0.008732,-0.013956,0.003550,0.000000,0.011042
2.727060,-0.803925,-0.733337,0.003906,0.803925,-0.733337,-0.000000,1.088154,-0.189587,-0.500000,0.162654,-0.191624,-0.499466,0.162681,0.000009,-0.007445,0.000983,0.007509,0.872876,-1.381862,2.458878,3.635282,4.712395,2.443654,0.009471,0.007052,-0.012718,0.003503,0.000000,0.009277
2.747114,-0.819611,-0.717651,0.003906,0.819611,-0.717651,-0.000000,1.089397,-0.189423,-0.500000,0.162654,-0.191644,-0.499596,0.162710,-0.000504,-0.006337,0.000899,0.006420,0.873008,-1.381754,2.458646,3.635347,4.712411,2.443797,0.007283,0.006199,-0.010992,0.002169,0.000000,0.007889
2.767160,-0.835297,-0.709808,0.003906,0.835297,-0.709808,-0.000000,1.096152,-0.189256,-0.500000,0.162654,-0.191603,-0.499728,0.162740,0.001603,-0.004930,0.000141,0.005186,0.873232,-1.381674,2.458449,3.635395,4.712436,2.444001,0.008685,0.004957,-0.007402,0.002031,0.000000,0.008021
2.787215,-0.835297,-0.701965,0.003906,0.835297,-0.701965,-0.000000,1.091089,-0.189089,-0.500000,0.162654,-0.191563,-0.499790,0.162718,0.002936,-0.003106,-0.000888,0.004365,0.873380,-1.381570,2.458369,3.635402,4.712395,2.444117,0.008388,0.004109,-0.003633,0.001906,0.000000,0.007841
2.807269,-0.835297,-0.701965,0.003906,0.835297,-0.701965,-0.000000,1.091089,-0.188922,-0.500000,0.162654,-0.191508,-0.499829,0.162690,0.003255,-0.002072,-0.001244,0.004054,0.873515,-1.381495,2.458330,3.635442,4.712391,2.444348,0.007560,0.003392,-0.001738,0.001724,0.000000,0.007647
2.827326,-0.827454,-0.709808,0.003906,0.827454,-0.709808,-0.000000,1.090187,-0.188757,-0.500000,0.162654,-0.191451,-0.499857,0.162656,0.003247,-0.001399,-0.001264,0.003755,0.873635,-1.381423,2.458310,3.635486,4.712395,2.444440,0.006693,0.002661,-0.000503,0.000948,0.000000,0.006009
2.847379,-0.882355,-0.654907,0.003906,0.882355,-0.654907,-0.000000,1.098842,-0.188580,-0.500000,0.162654,-0.191365,-0.499887,0.162639,0.004095,-0.001638,-0.000851,0.004492,0.873815,-1.381391,2.458306,3.635511,4.712343,2.444576,0.008282,0.001752,-0.000280,0.000618,0.000000,0.009181
2.867434,-0.952942,-0.584320,0.003906,0.952942,-0.584320,-0.000000,1.117823,-0.188390,-0.500000,0.162654,-0.191246,-0.499925,0.162611,0.003981,-0.001585,-0.000423,0.004306,0.874031,-1.381347,2.458321,3.635503,4.712395,2.444767,0.008043,0.000899,-0.000194,0.000363,0.000000,0.009639
2.887488,-0.968628,-0.568634,0.003906,0.968628,-0.568634,-0.000000,1.123203,-0.188196,-0.500000,0.162654,-0.191179,-0.499969,0.162615,0.003889,-0.001478,-0.000217,0.004166,0.874192,-1.381335,2.458285,3.635534,4.712388,2.444927,0.007767,0.000402,-0.000046,0.000263,0.000000,0.009476
2.907543,-0.968628,-0.560791,0.003906,0.968628,-0.560791,-0.000000,1.119253,-0.188002,-0.500000,0.162654,-0.191120,-0.499974,0.162613,0.003955,-0.001511,-0.000053,0.004234,0.874278,-1.381351,2.458321,3.635506,4.712423,2.445095,0.007909,0.000088,-0.000037,0.000193,0.000000,0.008406
2.927600,-0.960785,-0.568634,0.003906,0.960785,-0.568634,-0.000000,1.116446,-0.187810,-0.500000,0.162654,-0.191037,-0.500001,0.162631,0.003830,-0.001456,-0.000039,0.004098,0.874443,-1.381388,2.458338,3.635458,4.712403,2.445254,0.007651,0.000057,-0.000015,0.000133,0.000000,0.006991
2.947634,-0.960785,-0.568634,0.003906,0.960785,-0.568634,-0.000000,1.116446,-0.187618,-0.500000,0.162654,-0.190966,-0.500028,0.162609,0.004899,-0.001858,-0.000013,0.005240,0.874586,-1.381351,2.458321,3.635539,4.712399,2.445338,0.009782,0.000000,-0.000000,0.000110,0.000000,0.010434
2.967688,-1.000000,-0.356873,0.003906,1.000000,-0.356873,-0.000000,1.061771,-0.187418,-0.500000,0.162654,-0.190860,-0.500059,0.162644,0.005857,-0.001526,0.000057,0.006053,0.874794,-1.381427,2.458346,3.635490,4.712364,2.445654,0.010815,-0.001012,0.001155,0.000031,0.000000,0.011916
2.987704,-1.000000,-0.341187,0.003906,1.000000,-0.341187,-0.000000,1.056602,-0.187218,-0.500000,0.162654,-0.190738,-0.500106,0.162647,0.005734,-0.001009,0.000248,0.005827,0.875042,-1.381435,2.458338,3.635523,4.712347,2.445825,0.009974,-0.001984,0.001932,0.000013,0.000000,0.011112
3.007761,-1.000000,-0.341187,0.003906,1.000000,-0.341187,-0.000000,1.056602,-0.187018,-0.500000,0.162654,-0.190619,-0.500100,0.162657,0.005966,-0.001002,0.000956,0.006125,0.875208,-1.381519,2.458426,3.635510,4.712375,2.446065,0.010318,-0.003534,0.002132,0.000000,0.000000,0.010437
3.027815,-1.000000,-0.341187,0.003906,1.000000,-0.341187,-0.000000,1.056602,-0.186818,-0.500000,0.162654,-0.190503,-0.500123,0.162648,0.005583,-0.000887,0.001261,0.005792,0.875408,-1.381526,2.458469,3.635471,4.712403,2.446252,0.009593,-0.004054,0.002211,-0.000615,0.000000,0.010304
3.047856,-1.000000,-0.341187,0.003906,1.000000,-0.341187,-0.000000,1.056602,-0.186618,-0.500000,0.162654,-0.190401,-0.500159,0.162686,0.006995,-0.000293,0.001038,0.007078,0.875620,-1.381602,2.458478,3.635447,4.712351,2.446484,0.010986,-0.005008,0.004080,-0.000823,0.000000,0.010768
3.067910,-1.000000,-0.341187,0.003906,1.000000,-0.341187,-0.000000,1.056602,-0.186418,-0.500000,0.162654,-0.190212,-0.500153,0.162709,0.008117,0.000154,0.000862,0.008164,0.875896,-1.381747,2.458606,3.635447,4.712367,2.446667,0.012128,-0.005575,0.005839,-0.002700,0.000000,0.011286
3.087964,-1.000000,-0.341187,0.003906,1.000000,-0.341187,-0.000000,1.056602,-0.186218,-0.500000,0.162654,-0.190076,-0.500150,0.162708,0.008361,0.000642,0.000550,0.008404,0.876087,-1.381810,2.458714,3.635367,4.712411,2.446935,0.011884,-0.005535,0.007036,-0.004167,0.000000,0.010956
3.108017,-1.000000,-0.341187,0.003906,1.000000,-0.341187,-0.000000,1.056602,-0.186018,-0.500000,0.162654,-0.189899,-0.500114,0.162692,0.008770,0.000967,-0.000070,0.008823,0.876315,-1.381905,2.458882,3.635358,4.712399,2.447146,0.012099,-0.005032,0.007487,-0.002590,0.000000,0.011348
3.128070,-1.000000,-0.341187,0.003906,1.000000,-0.341187,-0.000000,1.056602,-0.185818,-0.500000,0.162654,-0.189714,-0.500122,0.162700,0.008512,0.001227,-0.000626,0.008623,0.876595,-1.381993,2.459005,3.635262,4.712440,2.447362,0.011383,-0.004130,0.007677,-0.002379,0.000000,0.012659
3.148125,-1.000000,-0.341187,0.003906,1.000000,-0.341187,-0.000000,1.056602,-0.185618,-0.500000,0.162654,-0.189520,-0.500102,0.162690,0.010105,0.001643,-0.001002,0.010286,0.876875,-1.382093,2.459149,3.635295,4.712399,2.447629,0.013284,-0.004577,0.009462,-0.003179,0.000000,0.013079
3.168158,-1.000000,-0.341187,0.003906,1.000000,-0.341187,-0.000000,1.056602,-0.185418,-0.500000,0.162654,-0.189333,-0.500055,0.162661,0.010267,0.001978,-0.000802,0.010486,0.877115,-1.382169,2.459353,3.635194,4.712335,2.447853,0.013113,-0.005477,0.010120,-0.003194,0.000000,0.013171
3.188216,-1.000000,-0.341187,0.003906,1.000000,-0.341187,-0.000000,1.056602,-0.185218,-0.500000,0.162654,-0.189117,-0.499993,0.162648,0.009119,0.000673,0.000110,0.009145,0.877354,-1.382322,2.459598,3.635154,4.712379,2.448116,0.013025,-0.005166,0.007243,-0.002736,0.000000,0.013071
3.208245,-1.000000,-0.341187,0.003906,1.000000,-0.341187,-0.000000,1.056602,-0.185018,-0.500000,0.162654,-0.188955,-0.500014,0.162626,0.009007,0.000363,0.000109,0.009015,0.877622,-1.382325,2.459673,3.635099,4.712408,2.448396,0.013252,-0.004711,0.006677,-0.002809,0.000000,0.013614
3.228300,-1.000000,-0.341187,0.003906,1.000000,-0.341187,-0.000000,1.056602,-0.184818,-0.500000,0.162654,-0.188766,-0.500013,0.162642,0.009825,0.000151,0.000267,0.009830,0.877905,-1.382449,2.459794,3.635102,4.712420,2.448687,0.014771,-0.005269,0.006601,-0.001519,0.000000,0.014856
3.248357,-1.000000,-0.341187,0.003906,1.000000,-0.341187,-0.000000,1.056602,-0.184618,-0.500000,0.162654,-0.188578,-0.499988,0.162641,0.010052,0.000018,0.000189,0.010054,0.878164,-1.382557,2.459970,3.634990,4.712395,2.449007,0.015290,-0.004986,0.006638,-0.002190,0.000000,0.015372
3.268413,-1.000000,-0.341187,0.003906,1.000000,-0.341187,-0.000000,1.056602,-0.184418,-0.500000,0.162654,-0.188371,-0.499980,0.162633,0.010030,0.000175,0.000072,0.010031,0.878472,-1.382649,2.460105,3.635003,4.712388,2.449290,0.015064,-0.004936,0.006861,-0.002156,0.000000,0.014298
3.288469,-1.000000,-0.341187,0.003906,1.000000,-0.341187,-0.000000,1.056602,-0.184218,-0.500000,0.162654,-0.188183,-0.499974,0.162631,0.009567,0.000043,0.000269,0.009571,0.878751,-1.382741,2.460237,3.634974,4.712388,2.449597,0.014531,-0.004965,0.006328,-0.001941,0.000000,0.013005
3.308526,-1.000000,-0.333344,0.003906,1.000000,-0.333344,-0.000000,1.054096,-0.184018,-0.500000,0.162654,-0.188018,-0.500017,0.162650,0.009875,-0.000016,-0.000293,0.009880,0.879051,-1.382800,2.460280,3.634926,4.712412,2.449817,0.015079,-0.003863,0.006447,-0.002285,0.000000,0.013722
3.328581,-1.000000,-0.333344,0.003906,1.000000,-0.333344,-0.000000,1.054096,-0.183818,-0.500000,0.162654,-0.187803,-0.500012,0.162652,0.009978,0.000074,0.000118,0.009979,0.879375,-1.382909,2.460425,3.634895,4.712403,2.450161,0.015131,-0.004889,0.006606,-0.001913,0.000000,0.016111
3.348638,-1.000000,-0.333344,0.003906,1.000000,-0.333344,-0.000000,1.054096,-0.183618,-0.500000,0.162654,-0.187609,-0.500036,0.162682,0.009483,0.000271,0.000429,0.009496,0.879715,-1.383026,2.460508,3.634866,4.712343,2.450464,0.014131,-0.005474,0.006745,-0.002499,0.000000,0.014874
3.368693,-1.000000,-0.341187,0.003906,1.000000,-0.341187,-0.000000,1.056602,-0.183418,-0.500000,0.162654,-0.187439,-0.499997,0.162646,0.009134,-0.000099,0.000451,0.009146,0.879922,-1.383076,2.460689,3.634794,4.712363,2.450743,0.014071,-0.004868,0.005951,-0.002645,0.000000,0.015021
3.388748,-1.000000,-0.341187,0.003906,1.000000,-0.341187,-0.000000,1.056602,-0.183218,-0.500000,0.162654,-0.187217,-0.500002,0.162679,0.008394,-0.000160,0.000336,0.008402,0.880266,-1.383237,2.460829,3.634742,4.712363,2.451051,0.013023,-0.004230,0.005333,-0.002363,0.000000,0.015052
3.408804,-1.000000,-0.333344,0.003906,1.000000,-0.333344,-0.000000,1.054096,-0.183018,-0.500000,0.162654,-0.187062,-0.500016,0.162665,0.009365,0.000090,0.000178,0.009367,0.880517,-1.383269,2.460896,3.634767,4.712379,2.451366,0.014194,-0.004701,0.006292,-0.002193,0.000000,0.016706
3.428857,-1.000000,-0.341187,0.003906,1.000000,-0.341187,-0.000000,1.056602,-0.182818,-0.500000,0.162654,-0.186871,-0.500024,0.162679,0.009669,0.000062,0.000191,0.009671,0.880813,-1.383373,2.461013,3.634707,4.712411,2.451682,0.014700,-0.004830,0.006432,-0.002214,0.000000,0.016086
3.448912,-1.000000,-0.341187,0.003906,1.000000,-0.341187,-0.000000,1.056602,-0.182618,-0.500000,0.162654,-0.186659,-0.500019,0.162669,0.010330,0.000180,-0.000139,0.010332,0.881129,-1.383452,2.461164,3.634634,4.712411,2.452016,0.015569,-0.004651,0.006934,-0.001847,0.000000,0.014115
3.468973,-1.000000,-0.333344,0.003906,1.000000,-0.333344,-0.000000,1.054096,-0.182418,-0.500000,0.162654,-0.186477,-0.499998,0.162666,0.009866,0.000384,-0.000405,0.009882,0.881396,-1.383548,2.461317,3.634566,4.712347,2.452244,0.014608,-0.004162,0.006933,-0.001685,0.000000,0.013943
3.489027,-1.000000,-0.341187,0.003906,1.000000,-0.341187,-0.000000,1.056602,-0.182218,-0.500000,0.162654,-0.186249,-0.500004,0.162650,0.010503,0.000180,-0.000201,0.010506,0.881748,-1.383620,2.461444,3.634586,4.712367,2.452528,0.015847,-0.004564,0.007093,-0.002215,0.000000,0.015470
3.509082,-1.000000,-0.341187,0.003906,1.000000,-0.341187,-0.000000,1.056602,-0.182018,-0.500000,0.162654,-0.186059,-0.500027,0.162676,0.010760,0.000310,-0.000233,0.010767,0.882059,-1.383729,2.461536,3.634526,4.712403,2.452867,0.016081,-0.004733,0.007549,-0.002726,0.000000,0.015337
3.529137,-1.000000,-0.341187,0.003906,1.000000,-0.341187,-0.000000,1.056602,-0.181818,-0.500000,0.162654,-0.185857,-0.500006,0.162635,0.009540,0.000224,-0.000173,0.009544,0.882346,-1.383764,2.461692,3.634515,4.712388,2.453162,0.014330,-0.004230,0.006537,-0.002050,0.000000,0.013925
3.549163,-1.000000,-0.341187,0.003906,1.000000,-0.341187,-0.000000,1.056602,-0.181618,-0.500000,0.162654,-0.185651,-0.500006,0.162634,0.009048,0.000145,-0.000004,0.009049,0.882658,-1.383856,2.461823,3.634483,4.712403,2.453438,0.013681,-0.004270,0.006052,-0.001712,0.000000,0.013708
3.569218,-1.000000,-0.341187,0.003906,1.000000,-0.341187,-0.000000,1.056602,-0.181418,-0.500000,0.162654,-0.185457,-0.499996,0.162619,0.010394,0.000680,-0.000572,0.010432,0.882938,-1.383928,2.461968,3.634434,4.712420,2.453681,0.015076,-0.004396,0.007759,-0.002004,0.000000,0.014519
3.589275,-1.000000,-0.341187,0.003906,1.000000,-0.341187,-0.000000,1.056602,-0.181218,-0.500000,0.162654,-0.185270,-0.500019,0.162669,0.010470,0.000503,-0.000285,0.010486,0.883261,-1.384080,2.462056,3.634374,4.712395,2.453992,0.015421,-0.004755,0.007587,-0.002331,0.000000,0.016052
3.609330,-1.000000,-0.333344,0.003906,1.000000,-0.333344,-0.000000,1.054096,-0.181018,-0.500000,0.162654,-0.185047,-0.499973,0.162641,0.010227,0.000578,-0.000077,0.010243,0.883544,-1.384180,2.462276,3.634310,4.712395,2.454384,0.014961,-0.005187,0.007507,-0.001995,0.000000,0.015200
3.629392,-1.000000,-0.333344,0.003906,1.000000,-0.333344,-0.000000,1.054096,-0.180818,-0.500000,0.162654,-0.184840,-0.499966,0.162603,0.009663,0.000186,0.000182,0.009666,0.883852,-1.384212,2.462408,3.634327,4.712399,2.454679,0.014596,-0.004905,0.006615,-0.002438,0.000000,0.014166
3.649450,-1.000000,-0.333344,0.003906,1.000000,-0.333344,-0.000000,1.054096,-0.180618,-0.500000,0.162654,-0.184656,-0.499980,0.162622,0.009715,-0.000032,-0.000071,0.009715,0.884152,-1.384312,2.462512,3.634250,4.712395,2.454975,0.014955,-0.004183,0.006174,-0.001920,0.000000,0.013317
3.669504,-1.000000,-0.333344,0.003906,1.000000,-0.333344,-0.000000,1.054096,-0.180418,-0.500000,0.162654,-0.184472,-0.499979,0.162625,0.010221,-0.000187,0.000246,0.010226,0.884431,-1.384404,2.462628,3.634235,4.712407,2.455254,0.015933,-0.004832,0.006303,-0.002262,0.000000,0.015695
3.689561,-1.000000,-0.333344,0.003906,1.000000,-0.333344,-0.000000,1.054096,-0.180218,-0.500000,0.162654,-0.184270,-0.499986,0.162614,0.010058,-0.000059,0.000676,0.010081,0.884759,-1.384460,2.462748,3.634170,4.712371,2.455541,0.015528,-0.005803,0.006402,-0.002093,0.000000,0.014799
3.709621,-1.000000,-0.333344,0.003906,1.000000,-0.333344,-0.000000,1.054096,-0.180018,-0.500000,0.162654,-0.184046,-0.499974,0.162605,0.009998,-0.000111,0.000253,0.010001,0.885091,-1.384564,2.462895,3.634203,4.712358,2.455825,0.015508,-0.004819,0.006300,-0.002367,0.000000,0.015108
3.729631,-1.000000,-0.341187,0.003906,1.000000,-0.341187,-0.000000,1.056602,-0.179818,-0.500000,0.162654,-0.183868,-0.499988,0.162642,0.009690,-0.000321,0.000153,0.009696,0.885386,-1.384696,2.462995,3.634127,4.712343,2.456120,0.015303,-0.004264,0.005639,-0.001715,0.000000,0.014552
3.749686,-1.000000,-0.333344,0.003906,1.000000,-0.333344,-0.000000,1.054096,-0.179618,-0.500000,0.162654,-0.183695,-0.500018,0.162654,0.009140,-0.000272,0.000246,0.009147,0.885682,-1.384764,2.463055,3.634118,4.712375,2.456460,0.014400,-0.004255,0.005390,-0.001724,0.000000,0.015623
3.769743,-1.000000,-0.333344,0.003906,1.000000,-0.333344,-0.000000,1.054096,-0.179418,-0.500000,0.162654,-0.183467,-0.499996,0.162625,0.009719,-0.000536,0.000520,0.009748,0.886014,-1.384831,2.463232,3.634067,4.712339,2.456819,0.015630,-0.004673,0.005455,-0.002472,0.000000,0.015988
3.789797,-1.000000,-0.333344,0.003906,1.000000,-0.333344,-0.000000,1.054096,-0.179218,-0.500000,0.162654,-0.183329,-0.500016,0.162661,0.009685,-0.000210,0.000613,0.009707,0.886236,-1.384943,2.463300,3.634014,4.712403,2.457062,0.015172,-0.005265,0.005952,-0.002374,0.000000,0.014200
3.809852,-1.000000,-0.333344,0.003906,1.000000,-0.333344,-0.000000,1.054096,-0.179018,-0.500000,0.162654,-0.183143,-0.499999,0.162634,0.008756,-0.000115,0.000702,0.008785,0.886500,-1.384995,2.463439,3.634007,4.712415,2.457402,0.013628,-0.005135,0.005539,-0.002319,0.000000,0.013944
3.829908,-1.000000,-0.333344,0.003906,1.000000,-0.333344,-0.000000,1.054096,-0.178818,-0.500000,0.162654,-0.182960,-0.500044,0.162692,0.008943,-0.000438,0.000501,0.008967,0.886848,-1.385131,2.463491,3.633926,4.712371,2.457665,0.014325,-0.004465,0.004979,-0.001640,0.000000,0.014606
3.849962,-1.000000,-0.341187,0.003906,1.000000,-0.341187,-0.000000,1.056602,-0.178618,-0.500000,0.162654,-0.182780,-0.500034,0.162689,0.009941,-0.000476,0.000338,0.009958,0.887115,-1.385220,2.463619,3.633903,4.712351,2.457936,0.015915,-0.004509,0.005574,-0.002030,0.000000,0.015615
3.870016,-1.000000,-0.333344,0.003906,1.000000,-0.333344,-0.000000,1.054096,-0.178418,-0.500000,0.162654,-0.182598,-0.500056,0.162713,0.010458,0.000121,0.000172,0.010460,0.887407,-1.385323,2.463707,3.633854,4.712432,2.458256,0.015969,-0.005176,0.006826,-0.001925,0.000000,0.015024
3.890070,-1.000000,-0.333344,0.003906,1.000000,-0.333344,-0.000000,1.054096,-0.178218,-0.500000,0.162654,-0.182374,-0.500036,0.162676,0.010255,0.000095,0.000060,0.010256,0.887735,-1.385375,2.463872,3.633843,4.712395,2.458595,0.015696,-0.004766,0.006745,-0.002443,0.000000,0.014544
3.910121,-1.000000,-0.333344,0.003906,1.000000,-0.333344,-0.000000,1.054096,-0.178018,-0.500000,0.162654,-0.182181,-0.500065,0.162711,0.010273,0.000400,-0.000416,0.010290,0.888066,-1.385491,2.463959,3.633754,4.712411,2.458895,0.015347,-0.004292,0.007026,-0.001380,0.000000,0.015408
3.930161,-1.000000,-0.333344,0.003906,1.000000,-0.333344,-0.000000,1.054096,-0.177818,-0.500000,0.162654,-0.181957,-0.500024,0.162681,0.010410,0.000457,-0.000260,0.010423,0.888370,-1.385583,2.464154,3.633758,4.712371,2.459206,0.015493,-0.004717,0.007252,-0.001640,0.000000,0.016610
3.950218,-1.000000,-0.152954,0.003906,1.000000,-0.152954,-0.000000,1.011630,-0.177618,-0.500000,0.162654,-0.181789,-0.500040,0.162692,0.011206,0.000744,-0.000407,0.011238,0.888641,-1.385667,2.464230,3.633770,4.712403,2.459497,0.016367,-0.005073,0.008328,-0.002416,0.000000,0.016124
3.970275,-1.000000,-0.160797,0.003906,1.000000,-0.160797,-0.000000,1.012845,-0.177418,-0.500000,0.162654,-0.181510,-0.500011,0.162663,0.011141,0.000550,-0.000306,0.011159,0.889033,-1.385767,2.464455,3.633699,4.712415,2.459828,0.016521,-0.005000,0.007961,-0.002379,0.000000,0.015673
3.990333,-1.000000,-0.035309,0.003906,1.000000,0.000000,-0.000000,1.000000,-0.177218,-0.500000,0.162654,-0.181312,-0.500015,0.162667,0.010555,0.000201,-0.000139,0.010557,0.889345,-1.385855,2.464579,3.633627,4.712411,2.460080,0.016059,-0.004673,0.006940,-0.001821,0.000000,0.015275
4.010388,-1.000000,0.003906,0.003906,1.000000,0.000000,-0.000000,1.000000,-0.177018,-0.500000,0.162654,-0.181123,-0.499992,0.162651,0.009903,0.000321,-0.000158,0.009909,0.889620,-1.385931,2.464735,3.633578,4.712363,2.460367,0.014908,-0.004473,0.006760,-0.001914,0.000000,0.015858
4.030446,-1.000000,0.003906,0.003906,1.000000,0.000000,-0.000000,1.000000,-0.176818,-0.500000,0.162654,-0.180925,-0.499994,0.162638,0.010283,0.000295,0.000137,0.010288,0.889919,-1.385999,2.464846,3.633602,4.712395,2.460759,0.015535,-0.005122,0.007129,-0.002861,0.000000,0.015621
4.050468,-1.000000,0.003906,0.003906,1.000000,0.000000,-0.000000,1.000000,-0.176618,-0.500000,0.162654,-0.180696,-0.500012,0.162646,0.010268,-0.000110,0.000214,0.010271,0.890287,-1.386091,2.464970,3.633527,4.712432,2.461054,0.016026,-0.004785,0.006390,-0.002517,0.000000,0.016182
4.070523,-1.000000,0.003906,0.003906,1.000000,0.000000,-0.000000,1.000000,-0.176418,-0.500000,0.162654,-0.180473,-0.500002,0.162634,0.010536,-0.000220,-0.000136,0.010540,0.890635,-1.386179,2.465115,3.633523,4.712371,2.461381,0.016586,-0.004101,0.006240,-0.001973,0.000000,0.017143
4.090578,-1.000000,0.003906,0.003906,1.000000,0.000000,-0.000000,1.000000,-0.176218,-0.500000,0.162654,-0.180276,-0.500010,0.162647,0.010307,-0.000194,-0.000036,0.010309,0.890942,-1.386279,2.465238,3.633431,4.712407,2.461725,0.016204,-0.004235,0.006132,-0.001894,0.000000,0.017328
4.110635,-1.000000,0.003906,0.003906,1.000000,0.000000,-0.000000,1.000000,-0.176018,-0.500000,0.162654,-0.180070,-0.500024,0.162673,0.010796,-0.000203,0.000334,0.010803,0.891286,-1.386407,2.465334,3.633439,4.712379,2.462072,0.016980,-0.005163,0.006490,-0.002257,0.000000,0.016838
4.130691,-1.000000,0.003906,0.003906,1.000000,0.000000,-0.000000,1.000000,-0.175818,-0.500000,0.162654,-0.179838,-0.499997,0.162646,0.010337,-0.000065,0.000337,0.010342,0.891597,-1.386487,2.465538,3.633334,4.712436,2.462355,0.016102,-0.005156,0.006389,-0.001988,0.000000,0.015202
4.150748,-1.000000,0.003906,0.003906,1.000000,0.000000,-0.000000,1.000000,-0.175618,-0.500000,0.162654,-0.179664,-0.500032,0.162675,0.010032,-0.000240,0.000043,0.010035,0.891925,-1.386579,2.465582,3.633331,4.712379,2.462666,0.015855,-0.004184,0.005907,-0.002040,0.000000,0.014464
4.170803,-1.000000,0.003906,0.003906,1.000000,0.000000,-0.000000,1.000000,-0.175418,-0.500000,0.162654,-0.179457,-0.500024,0.162657,0.009312,-0.000239,0.000037,0.009315,0.892237,-1.386643,2.465719,3.633310,4.712375,2.462990,0.014742,-0.003896,0.005371,-0.001463,0.000000,0.015159
4.190859,-1.000000,0.003906,0.003906,1.000000,0.000000,-0.000000,1.000000,-0.175218,-0.500000,0.162654,-0.179260,-0.500030,0.162640,0.010002,0.000367,-0.000035,0.010009,0.892540,-1.386690,2.465835,3.633270,4.712411,2.463346,0.015062,-0.004807,0.006812,-0.001724,0.000000,0.015388
4.210916,-1.000000,0.003906,0.003906,1.000000,0.000000,-0.000000,1.000000,-0.175018,-0.500000,0.162654,-0.179101,-0.500031,0.162659,0.009784,0.000328,0.000043,0.009789,0.892787,-1.386794,2.465937,3.633218,4.712420,2.463650,0.014775,-0.004811,0.006626,-0.001754,0.000000,0.014219
4.230977,-1.000000,0.003906,0.003906,1.000000,0.000000,-0.000000,1.000000,-0.174818,-0.500000,0.162654,-0.178904,-0.500029,0.162664,0.009900,0.000256,-0.000200,0.009906,0.893095,-1.386898,2.466054,3.633231,4.712403,2.463932,0.015053,-0.004261,0.006578,-0.001877,0.000000,0.014803
4.251032,-1.000000,0.003906,0.003906,1.000000,0.000000,-0.000000,1.000000,-0.174618,-0.500000,0.162654,-0.178692,-0.500025,0.162661,0.009774,0.000659,-0.000469,0.009807,0.893419,-1.386991,2.466190,3.633198,4.712403,2.464232,0.014358,-0.004206,0.007065,-0.001446,0.000000,0.015767
4.271090,-1.000000,0.003906,0.003906,1.000000,0.000000,-0.000000,1.000000,-0.174418,-0.500000,0.162654,-0.178509,-0.500010,0.162654,0.010172,0.000025,0.000216,0.010174,0.893682,-1.387075,2.466334,3.633138,4.712411,2.464551,0.015775,-0.004880,0.006474,-0.002430,0.000000,0.014991
4.291144,-1.000000,0.003906,0.003906,1.000000,0.000000,-0.000000,1.000000,-0.174218,-0.500000,0.162654,-0.178327,-0.500017,0.162653,0.010442,0.000371,-0.000226,0.010451,0.893973,-1.387142,2.466438,3.633095,4.712411,2.464786,0.015768,-0.004555,0.007138,-0.002258,0.000000,0.015120
4.311158,-1.000000,0.003906,0.003906,1.000000,0.000000,-0.000000,1.000000,-0.174018,-0.500000,0.162654,-0.178093,-0.499985,0.162620,0.010601,0.000147,-0.000283,0.010606,0.894314,-1.387214,2.466631,3.633046,4.712343,2.465097,0.016304,-0.004265,0.006763,-0.001773,0.000000,0.013904
4.331213,-1.000000,0.003906,0.003906,1.000000,0.000000,-0.000000,1.000000,-0.173818,-0.500000,0.162654,-0.177886,-0.500010,0.162659,0.010243,0.000172,-0.000223,0.010247,0.894653,-1.387354,2.466726,3.632998,4.712403,2.465373,0.015723,-0.004258,0.006581,-0.001721,0.000000,0.014158
4.351271,-1.000000,0.003906,0.003906,1.000000,0.000000,-0.000000,1.000000,-0.173618,-0.500000,0.162654,-0.177704,-0.500016,0.162647,0.009616,0.000502,0.000055,0.009629,0.894961,-1.387398,2.466822,3.632966,4.712331,2.465656,0.014340,-0.004983,0.006723,-0.001472,0.000000,0.015661
4.371326,-1.000000,0.003906,0.003906,1.000000,0.000000,-0.000000,1.000000,-0.173418,-0.500000,0.162654,-0.177473,-0.500002,0.162610,0.009761,0.000582,0.000075,0.009778,0.895296,-1.387446,2.466982,3.632958,4.712358,2.466060,0.014473,-0.005126,0.007050,-0.002100,0.000000,0.014874
4.391386,-1.000000,0.003906,0.003906,1.000000,0.000000,-0.000000,1.000000,-0.173218,-0.500000,0.162654,-0.177301,-0.499985,0.162642,0.010063,0.000106,0.000004,0.010064,0.895539,-1.387606,2.467122,3.632902,4.712371,2.466375,0.015543,-0.004514,0.006422,-0.002030,0.000000,0.015944
4.411434,-1.000000,0.003906,0.003906,1.000000,0.000000,-0.000000,1.000000,-0.173018,-0.500000,0.162654,-0.177080,-0.499992,0.162633,0.009934,0.000098,0.000033,0.009934,0.895895,-1.387678,2.467242,3.632887,4.712358,2.466695,0.015358,-0.004485,0.006352,-0.002164,0.000000,0.016940
4.431487,-1.000000,0.003906,0.003906,1.000000,0.000000,-0.000000,1.000000,-0.172818,-0.500000,0.162654,-0.176881,-0.499975,0.162621,0.010489,0.000263,-0.000123,0.010493,0.896178,-1.387762,2.467394,3.632846,4.712383,2.467038,0.016024,-0.004614,0.006954,-0.002281,0.000000,0.017450
4.451541,-1.000000,0.003906,0.003906,1.000000,0.000000,-0.000000,1.000000,-0.172618,-0.500000,0.162654,-0.176663,-0.499984,0.162608,0.011223,0.000318,-0.000035,0.011228,0.896530,-1.387818,2.467513,3.632798,4.712383,2.467373,0.017108,-0.005212,0.007429,-0.002061,0.000000,0.017063
4.471602,-1.000000,0.003906,0.003906,1.000000,0.000000,-0.000000,1.000000,-0.172418,-0.500000,0.162654,-0.176454,-0.499979,0.162622,0.011028,0.000202,-0.000062,0.011030,0.896854,-1.387946,2.467645,3.632790,4.712371,2.467717,0.016956,-0.004895,0.007157,-0.002281,0.000000,0.015325
4.491655,-1.000000,0.003906,0.003906,1.000000,0.000000,-0.000000,1.000000,-0.172218,-0.500000,0.162654,-0.176229,-0.499980,0.162637,0.010940,0.000322,-0.000258,0.010948,0.897214,-1.388065,2.467790,3.632698,4.712330,2.467952,0.016675,-0.004657,0.007183,-0.001727,0.000000,0.015024
4.511709,-1.000000,0.003906,0.003906,1.000000,0.000000,-0.000000,1.000000,-0.172018,-0.500000,0.162654,-0.176041,-0.499999,0.162643,0.010013,0.000052,0.000052,0.010013,0.897512,-1.388141,2.467873,3.632694,4.712411,2.468267,0.015570,-0.004539,0.006183,-0.001559,0.000000,0.015849
4.531766,-1.000000,0.003906,0.003906,1.000000,0.000000,-0.000000,1.000000,-0.171818,-0.500000,0.162654,-0.175827,-0.499991,0.162628,0.009616,-0.000074,0.000401,0.009625,0.897840,-1.388213,2.468017,3.632646,4.712395,2.468611,0.015114,-0.004823,0.005921,-0.002436,0.000000,0.014420
4.551822,-1.000000,0.003906,0.003906,1.000000,0.000000,-0.000000,1.000000,-0.171618,-0.500000,0.162654,-0.175639,-0.499988,0.162630,0.010117,0.000018,0.000501,0.010129,0.898132,-1.388301,2.468140,3.632598,4.712388,2.468889,0.015788,-0.005370,0.006357,-0.002406,0.000000,0.015325
4.571861,-1.000000,0.003906,0.003906,1.000000,0.000000,-0.000000,1.000000,-0.171418,-0.500000,0.162654,-0.175457,-0.500005,0.162653,0.010252,-0.000141,0.000446,0.010262,0.898439,-1.388405,2.468221,3.632582,4.712383,2.469229,0.016202,-0.005148,0.006091,-0.002009,0.000000,0.016772
4.591916,-1.000000,0.003906,0.003906,1.000000,0.000000,-0.000000,1.000000,-0.171218,-0.500000,0.162654,-0.175251,-0.499981,0.162655,0.009732,-0.000094,0.000319,0.009738,0.898726,-1.388534,2.468381,3.632579,4.712408,2.469485,0.015336,-0.004707,0.005868,-0.002072,0.000000,0.016300
4.611967,-1.000000,0.003906,0.003906,1.000000,0.000000,-0.000000,1.000000,-0.171018,-0.500000,0.162654,-0.175059,-0.499979,0.162641,0.009195,-0.000049,0.000346,0.009201,0.899034,-1.388589,2.468501,3.632534,4.712363,2.469876,0.014447,-0.004606,0.005565,-0.001737,0.000000,0.014556
4.632019,-1.000000,0.003906,0.003906,1.000000,0.000000,-0.000000,1.000000,-0.170818,-0.500000,0.162654,-0.174870,-0.499982,0.162638,0.009417,-0.000315,0.000209,0.009425,0.899326,-1.388661,2.468612,3.632498,4.712395,2.470140,0.015130,-0.004055,0.005291,-0.002000,0.000000,0.014288
4.652076,-1.000000,0.003906,0.003906,1.000000,0.000000,-0.000000,1.000000,-0.170618,-0.500000,0.162654,-0.174693,-0.500005,0.162683,0.009920,-0.000347,0.000391,0.009934,0.899625,-1.388801,2.468688,3.632463,4.712424,2.470459,0.015962,-0.004610,0.005531,-0.001986,0.000000,0.014602
4.672130,-1.000000,0.003906,0.003906,1.000000,0.000000,-0.000000,1.000000,-0.170418,-0.500000,0.162654,-0.174507,-0.500035,0.162663,0.010299,-0.000384,0.000261,0.010309,0.899965,-1.388793,2.468759,3.632366,4.712379,2.470718,0.016606,-0.004447,0.005703,-0.002146,0.000000,0.016253
4.692182,-1.000000,0.003906,0.003906,1.000000,0.000000,-0.000000,1.000000,-0.170218,-0.500000,0.162654,-0.174280,-0.500008,0.162645,0.010384,-0.000095,0.000176,0.010386,0.900288,-1.388893,2.468932,3.632371,4.712367,2.471106,0.016388,-0.004713,0.006145,-0.001756,0.000000,0.015447
4.712232,-1.000000,0.003906,0.003906,1.000000,0.000000,-0.000000,1.000000,-0.170018,-0.500000,0.162654,-0.174103,-0.500037,0.162683,0.010645,0.000117,0.000190,0.010648,0.900600,-1.389005,2.469004,3.632286,4.712379,2.471385,0.016540,-0.005105,0.006682,-0.001991,0.000000,0.015663
4.732281,-1.000000,0.003906,0.003906,1.000000,0.000000,-0.000000,1.000000,-0.169818,-0.500000,0.162654,-0.173873,-0.500042,0.162692,0.011156,0.000343,-0.000105,0.011162,0.900967,-1.389121,2.469127,3.632294,4.712375,2.471716,0.017067,-0.004971,0.007408,-0.002447,0.000000,0.016756
4.752332,-1.000000,0.003906,0.003906,1.000000,0.000000,-0.000000,1.000000,-0.169618,-0.500000,0.162654,-0.173639,-0.500049,0.162713,0.011121,0.000354,-0.000400,0.011134,0.901339,-1.389254,2.469264,3.632227,4.712388,2.472023,0.017006,-0.004394,0.007315,-0.002093,0.000000,0.017679
4.772386,-1.000000,0.003906,0.003906,1.000000,0.000000,-0.000000,1.000000,-0.169418,-0.500000,0.162654,-0.173440,-0.500027,0.162652,0.010677,0.000578,-0.000533,0.010706,0.901618,-1.389249,2.469408,3.632250,4.712420,2.472435,0.016039,-0.004227,0.007377,-0.001881,0.000000,0.016382
4.792441,-1.000000,0.003906,0.003906,1.000000,0.000000,-0.000000,1.000000,-0.169218,-0.500000,0.162654,-0.173265,-0.500003,0.162654,0.009840,0.000532,-0.000227,0.009857,0.901874,-1.389353,2.469556,3.632186,4.712367,2.472715,0.014788,-0.004416,0.006837,-0.001888,0.000000,0.015296
4.812496,-1.000000,0.003906,0.003906,1.000000,0.000000,-0.000000,1.000000,-0.169018,-0.500000,0.162654,-0.173030,-0.499991,0.162625,0.010423,0.000348,0.000015,0.010429,0.902221,-1.389412,2.469720,3.632142,4.712399,2.473058,0.015939,-0.004895,0.006944,-0.002262,0.000000,0.016415
4.832551,-1.000000,0.003906,0.003906,1.000000,0.000000,-0.000000,1.000000,-0.168818,-0.500000,0.162654,-0.172849,-0.500004,0.162661,0.010874,0.000304,-0.000171,0.010880,0.902529,-1.389541,2.469812,3.632082,4.712367,2.473353,0.016709,-0.004668,0.007089,-0.002134,0.000000,0.016959
4.852608,-1.000000,0.003906,0.003906,1.000000,0.000000,-0.000000,1.000000,-0.168618,-0.500000,0.162654,-0.172607,-0.499981,0.162634,0.009894,0.000225,-0.000042,0.009897,0.902873,-1.389625,2.469989,3.632078,4.712407,2.473688,0.015274,-0.004400,0.006378,-0.002020,0.000000,0.016228
4.872665,-1.000000,0.003906,0.003906,1.000000,0.000000,-0.000000,1.000000,-0.168418,-0.500000,0.162654,-0.172412,-0.499974,0.162641,0.009232,-0.000011,-0.000182,0.009234,0.903180,-1.389733,2.470108,3.632086,4.712363,2.473919,0.014532,-0.003526,0.005571,-0.001870,0.000000,0.014587
4.892717,-1.000000,0.003906,0.003906,1.000000,0.000000,-0.000000,1.000000,-0.168218,-0.500000,0.162654,-0.172237,-0.499983,0.162612,0.009005,-0.000221,-0.000161,0.009009,0.903456,-1.389736,2.470205,3.632031,4.712403,2.474251,0.014439,-0.003254,0.004978,-0.001254,0.000000,0.013558
4.912768,-1.000000,0.003906,0.003906,1.000000,0.000000,-0.000000,1.000000,-0.168018,-0.500000,0.162654,-0.172064,-0.499999,0.162643,0.009543,-0.000376,0.000467,0.009562,0.903755,-1.389849,2.470285,3.631986,4.712379,2.474519,0.015483,-0.004527,0.005158,-0.001782,0.000000,0.015313
4.932823,-1.000000,0.003906,0.003906,1.000000,0.000000,-0.000000,1.000000,-0.167818,-0.500000,0.162654,-0.171863,-0.500010,0.162638,0.009330,-0.000246,0.000572,0.009351,0.904083,-1.389912,2.470384,3.631967,4.712388,2.474857,0.014992,-0.004805,0.005265,-0.001846,0.000000,0.016796
4.952880,-1.000000,0.003906,0.003906,1.000000,0.000000,-0.000000,1.000000,-0.167618,-0.500000,0.162654,-0.171699,-0.500023,0.162667,0.009402,-0.000209,0.000343,0.009410,0.904351,-1.390025,2.470467,3.631926,4.712415,2.475189,0.015064,-0.004451,0.005269,-0.001427,0.000000,0.015290
4.972938,-1.000000,0.003906,0.003906,1.000000,0.000000,-0.000000,1.000000,-0.167418,-0.500000,0.162654,-0.171515,-0.500036,0.162683,0.008692,-0.000177,0.000071,0.008694,0.904650,-1.390120,2.470560,3.631882,4.712440,2.475428,0.013911,-0.003605,0.004923,-0.001559,0.000000,0.013574
4.992993,-1.000000,0.003906,0.003906,1.000000,0.000000,-0.000000,1.000000,-0.167218,-0.500000,0.162654,-0.171329,-0.500044,0.162648,0.009175,-0.000182,0.000400,0.009185,0.904961,-1.390112,2.470660,3.631818,4.712407,2.475748,0.014683,-0.004433,0.005296,-0.002063,0.000000,0.014413
5.013050,-1.000000,0.145081,0.003906,1.000000,0.145081,-0.000000,1.010469,-0.167018,-0.499971,0.162654,-0.171162,-0.500039,0.162680,0.009357,-0.000235,0.000423,0.009369,0.905225,-1.390252,2.470772,3.631774,4.712379,2.476043,0.015039,-0.004536,0.005222,-0.001595,0.000000,0.016842
5.033108,-1.000000,0.458801,0.003906,1.000000,0.458801,-0.000000,1.100227,-0.166818,-0.499879,0.162654,-0.170975,-0.500035,0.162689,0.009144,-0.000034,0.000294,0.009149,0.905517,-1.390360,2.470879,3.631795,4.712371,2.476323,0.014460,-0.004423,0.005439,-0.001691,0.000000,0.015113
5.053158,-1.000000,0.505859,0.003906,1.000000,0.505859,-0.000000,1.120667,-0.166618,-0.499778,0.162654,-0.170760,-0.500045,0.162673,0.009409,0.000131,0.000033,0.009410,0.905860,-1.390407,2.470992,3.631758,4.712399,2.476641,0.014681,-0.004228,0.005808,-0.001520,0.000000,0.014740
5.073215,-0.929413,0.615662,0.003906,0.929413,0.615662,-0.000000,1.114831,-0.166432,-0.499655,0.162654,-0.170600,-0.500078,0.162714,0.010236,0.000305,-0.000101,0.010241,0.906152,-1.390513,2.471044,3.631690,4.712411,2.476961,0.015775,-0.004521,0.006583,-0.001704,0.000000,0.016227
5.093269,-0.905884,0.639191,0.003906,0.905884,0.639191,-0.000000,1.108688,-0.166251,-0.499527,0.162654,-0.170374,-0.500037,0.162689,0.010931,0.000119,0.000116,0.010933,0.906471,-1.390609,2.471240,3.631658,4.712355,2.477296,0.017109,-0.005010,0.006708,-0.001892,0.000000,0.017359
5.113326,-0.866669,0.678406,0.003906,0.866669,0.678406,-0.000000,1.100613,-0.166077,-0.499391,0.162654,-0.170140,-0.500041,0.162659,0.010427,0.000374,-0.000183,0.010435,0.906842,-1.390644,2.471364,3.631658,4.712367,2.477652,0.016006,-0.004518,0.006782,-0.001681,0.000000,0.016139
5.133383,-0.827454,0.709778,0.003906,0.827454,0.709778,-0.000000,1.090167,-0.165912,-0.499249,0.162654,-0.169915,-0.500031,0.162685,0.009895,0.000700,-0.000470,0.009930,0.907170,-1.390808,2.471520,3.631618,4.712428,2.477979,0.014769,-0.004074,0.007067,-0.002057,0.000000,0.014139
5.153441,-0.803925,0.733307,0.003906,0.803925,0.733307,-0.000000,1.088133,-0.165751,-0.499103,0.162654,-0.169727,-0.500032,0.162651,0.010443,0.000565,-0.000253,0.010461,0.907491,-1.390811,2.471623,3.631574,4.712339,2.478239,0.015808,-0.004590,0.007144,-0.001976,0.000000,0.015016
5.173498,-0.764709,0.756836,0.003906,0.764709,0.756836,-0.000000,1.075909,-0.165598,-0.498951,0.162654,-0.169517,-0.500013,0.162669,0.011007,0.000309,-0.000231,0.011014,0.907789,-1.390964,2.471780,3.631559,4.712383,2.478611,0.017025,-0.004565,0.006996,-0.001782,0.000000,0.017786
5.193554,-0.764709,0.764679,0.003906,0.764709,0.764679,-0.000000,1.081441,-0.165445,-0.498798,0.162654,-0.169309,-0.500033,0.162657,0.010337,0.000543,0.000034,0.010351,0.908145,-1.390999,2.471871,3.631507,4.712371,2.478893,0.015682,-0.005115,0.007013,-0.001767,0.000000,0.017144
5.213612,-0.717651,0.819580,0.003906,0.717651,0.819580,-0.000000,1.089374,-0.165302,-0.498635,0.162654,-0.169082,-0.500011,0.162655,0.009990,0.000422,-0.000018,0.009999,0.908472,-1.391119,2.472043,3.631466,4.712395,2.479256,0.015290,-0.004698,0.006609,-0.001757,0.000000,0.015174
5.233667,-0.647064,0.898010,0.003906,0.647064,0.898010,-0.000000,1.106849,-0.165172,-0.498455,0.162654,-0.168881,-0.499972,0.162643,0.010710,0.000406,-0.000376,0.010725,0.908740,-1.391232,2.472223,3.631447,4.712403,2.479580,0.016457,-0.004257,0.006947,-0.001701,0.000000,0.016857
5.253724,-0.349030,0.999969,0.003906,0.349030,0.999969,-0.000000,1.059132,-0.165102,-0.498255,0.162654,-0.168685,-0.500002,0.162650,0.011195,0.000761,-0.000405,0.011228,0.909091,-1.391287,2.472291,3.631403,4.712383,2.479899,0.016792,-0.004869,0.007782,-0.001624,0.000000,0.018278
5.273782,-0.152954,0.999969,0.003906,0.152954,0.999969,-0.000000,1.011600,-0.165072,-0.498055,0.162654,-0.168484,-0.500008,0.162648,0.011095,0.000563,-0.000196,0.011111,0.909423,-1.391360,2.472395,3.631378,4.712356,2.480238,0.016886,-0.004967,0.007459,-0.001917,0.000000,0.016985
5.293842,0.003906,0.999969,0.003906,-0.000000,0.999969,-0.000000,0.999969,-0.165072,-0.497855,0.162654,-0.168244,-0.499999,0.162641,0.010269,0.000331,-0.000019,0.010275,0.909787,-1.391463,2.472550,3.631358,4.712383,2.480538,0.015870,-0.004656,0.006641,-0.002033,0.000000,0.015086
5.313898,0.003906,0.999969,0.003906,-0.000000,0.999969,-0.000000,0.999969,-0.165072,-0.497655,0.162654,-0.168035,-0.500002,0.162636,0.010067,0.000509,-0.000242,0.010083,0.910119,-1.391535,2.472667,3.631322,4.712395,2.480845,0.015337,-0.004370,0.006737,-0.001672,0.000000,0.013505
5.333952,0.003906,0.999969,0.003906,-0.000000,0.999969,-0.000000,0.999969,-0.165072,-0.497455,0.162654,-0.167861,-0.499970,0.162640,0.009071,0.000905,-0.000390,0.009125,0.910374,-1.391651,2.472823,3.631266,4.712315,2.481149,0.013275,-0.004122,0.006863,-0.001881,0.000000,0.013751
5.354008,0.003906,0.999969,0.003906,-0.000000,0.999969,-0.000000,0.999969,-0.165072,-0.497255,0.162654,-0.167672,-0.499953,0.162656,0.010124,0.002553,-0.000152,0.010442,0.910645,-1.391779,2.472975,3.631174,4.712347,2.481384,0.012921,-0.007116,0.010333,-0.002690,0.000000,0.014474
5.374066,0.003906,0.999969,0.003906,-0.000000,0.999969,-0.000000,0.999969,-0.165072,-0.497055,0.162654,-0.167469,-0.499914,0.162632,0.010363,0.003151,-0.000057,0.010831,0.910904,-1.391875,2.473151,3.631202,4.712412,2.481680,0.012571,-0.008157,0.011507,-0.002963,0.000000,0.013717
5.394121,0.003906,0.999969,0.003906,-0.000000,0.999969,-0.000000,0.999969,-0.165072,-0.496855,0.162654,-0.167251,-0.499816,0.162612,0.010320,0.002923,-0.000351,0.010732,0.911132,-1.392048,2.473447,3.631122,4.712403,2.481907,0.012793,-0.007228,0.011098,-0.003047,0.000000,0.013633
5.414176,0.003906,0.999969,0.003906,-0.000000,0.999969,-0.000000,0.999969,-0.165072,-0.496655,0.162654,-0.167053,-0.499767,0.162603,0.009495,0.002918,-0.000335,0.009939,0.911380,-1.392171,2.473651,3.631054,4.712428,2.482175,0.011495,-0.006907,0.010607,-0.002922,0.000000,0.012106
5.434239,0.003906,0.999969,0.003906,-0.000000,0.999969,-0.000000,0.999969,-0.165072,-0.496455,0.162654,-0.166879,-0.499716,0.162634,0.009391,0.003442,0.000318,0.010007,0.911607,-1.392363,2.473851,3.630942,4.712371,2.482402,0.010690,-0.008783,0.011642,-0.003953,0.000000,0.011200
5.454294,0.003906,0.999969,0.003906,-0.000000,0.999969,-0.000000,0.999969,-0.165072,-0.496255,0.162654,-0.166696,-0.499638,0.162603,0.008513,0.003790,0.000763,0.009350,0.911799,-1.392470,2.474099,3.630846,4.712383,2.482642,0.008872,-0.009677,0.011931,-0.004899,0.000000,0.009553
5.474352,0.003906,0.999969,0.003906,-0.000000,0.999969,-0.000000,0.999969,-0.165072,-0.496055,0.162654,-0.166503,-0.499542,0.162634,0.008005,0.004064,0.000419,0.008987,0.911991,-1.392735,2.474375,3.630790,4.712371,2.482765,0.007732,-0.009160,0.011974,-0.004323,0.000000,0.008207
5.494406,0.003906,0.999969,0.003906,-0.000000,0.999969,-0.000000,0.999969,-0.165072,-0.495855,0.162654,-0.166394,-0.499428,0.162604,0.008062,0.004773,-0.000363,0.009376,0.912018,-1.392867,2.474630,3.630758,4.712399,2.482941,0.006952,-0.008530,0.013058,-0.003929,0.000000,0.006418
5.514463,0.003906,0.999969,0.003906,-0.000000,0.999969,-0.000000,0.999969,-0.165072,-0.495655,0.162654,-0.166209,-0.499349,0.162603,0.008183,0.006088,-0.000304,0.010204,0.912219,-1.393035,2.474886,3.630630,4.712383,2.483025,0.005529,-0.010343,0.015421,-0.004563,0.000000,0.004546
5.534517,0.003906,0.999969,0.003906,-0.000000,0.999969,-0.000000,0.999969,-0.165072,-0.495455,0.162654,-0.166024,-0.499204,0.162596,0.008011,0.006304,0.000528,0.010208,0.912343,-1.393283,2.475231,3.630598,4.712343,2.483097,0.004993,-0.012172,0.015912,-0.005536,0.000000,0.003776
5.554572,0.003906,0.999969,0.003906,-0.000000,0.999969,-0.000000,0.999969,-0.165072,-0.495255,0.162654,-0.165902,-0.499098,0.162637,0.007338,0.006086,0.000894,0.009575,0.912402,-1.393542,2.475505,3.630446,4.712363,2.483172,0.004193,-0.012446,0.015029,-0.004606,0.000000,0.003221
5.574628,0.003906,0.999969,0.003906,-0.000000,0.999969,-0.000000,0.999969,-0.165072,-0.495055,0.162654,-0.165741,-0.498959,0.162643,0.006315,0.006429,0.000956,0.009062,0.912490,-1.393798,2.475833,3.630395,4.712354,2.483228,0.002142,-0.012550,0.015093,-0.004913,0.000000,0.002077
5.594685,0.003906,0.999969,0.003906,-0.000000,0.999969,-0.000000,0.999969,-0.165072,-0.494855,0.162654,-0.165614,-0.498826,0.162665,0.005805,0.006838,0.000895,0.009014,0.912527,-1.394063,2.476142,3.630303,4.712363,2.483200,0.000825,-0.012570,0.015805,-0.006645,0.000000,0.000676
5.614742,0.003906,0.999969,0.003906,-0.000000,0.999969,-0.000000,0.999969,-0.165072,-0.494655,0.162654,-0.165499,-0.498694,0.162693,0.005993,0.007738,0.000684,0.009811,0.912534,-1.394335,2.476448,3.630202,4.712420,2.483252,0.000015,-0.013399,0.017364,-0.006524,0.000000,0.000002
5.634799,0.003906,0.999969,0.003906,-0.000000,0.999969,-0.000000,0.999969,-0.165072,-0.494455,0.162654,-0.165410,-0.498514,0.162669,0.005672,0.008209,0.000709,0.010003,0.912463,-1.394537,2.476825,3.630018,4.712383,2.483192,-0.001080,-0.013960,0.017904,-0.006170,0.000000,-0.001366
5.654857,0.003906,0.999969,0.003906,-0.000000,0.999969,-0.000000,0.999969,-0.165072,-0.494255,0.162654,-0.165294,-0.498320,0.162651,0.003685,0.008543,0.001012,0.009359,0.912407,-1.394797,2.477221,3.629966,4.712391,2.483156,-0.004668,-0.014226,0.017274,-0.005573,0.000000,-0.004092
5.674914,0.003906,0.999969,0.003906,-0.000000,0.999969,-0.000000,0.999969,-0.165072,-0.494055,0.162654,-0.165259,-0.498139,0.162702,0.002343,0.008716,0.000426,0.009036,0.912242,-1.395146,2.477552,3.629906,4.712375,2.483081,-0.007032,-0.012742,0.016645,-0.004806,0.000000,-0.005680
5.694981,0.003906,0.999969,0.003906,-0.000000,0.999969,-0.000000,0.999969,-0.165072,-0.493855,0.162654,-0.165173,-0.497954,0.162655,0.002010,0.009397,-0.000404,0.009618,0.912147,-1.395317,2.477924,3.629798,4.712395,2.482965,-0.008410,-0.011697,0.017679,-0.005557,0.000000,-0.007866
5.715050,0.003906,0.999969,0.003906,-0.000000,0.999969,-0.000000,0.999969,-0.165072,-0.493655,0.162654,-0.165150,-0.497776,0.162687,0.001709,0.010183,-0.000444,0.010335,0.911963,-1.395613,2.478256,3.629678,4.712395,2.482805,-0.009869,-0.012397,0.019026,-0.006708,0.000000,-0.011747
5.735118,0.003906,0.999969,0.003906,-0.000000,0.999969,-0.000000,0.999969,-0.165072,-0.493455,0.162654,-0.165116,-0.497573,0.162675,0.001496,0.010206,-0.000062,0.010315,0.911759,-1.395853,2.478640,3.629530,4.712420,2.482538,-0.010247,-0.013246,0.018746,-0.005499,0.000000,-0.011938
5.755161,0.003906,0.999969,0.003906,-0.000000,0.999969,-0.000000,0.999969,-0.165072,-0.493255,0.162654,-0.165080,-0.497344,0.162667,0.001492,0.009728,-0.000110,0.009842,0.911543,-1.396137,2.479053,3.629434,4.712379,2.482351,-0.009669,-0.012554,0.017899,-0.005227,0.000000,-0.011348
5.775216,0.003906,0.999969,0.003906,-0.000000,0.999969,-0.000000,0.999969,-0.165072,-0.493055,0.162654,-0.165040,-0.497168,0.162650,0.001081,0.009681,-0.000236,0.009744,0.911384,-1.396340,2.479388,3.629322,4.712399,2.482142,-0.010275,-0.012013,0.017667,-0.005658,0.000000,-0.011035
5.795271,0.003906,0.999969,0.003906,-0.000000,0.999969,-0.000000,0.999969,-0.165072,-0.492855,0.162654,-0.165031,-0.496977,0.162673,0.001158,0.010664,-0.000864,0.010761,0.911152,-1.396636,2.479724,3.629270,4.712440,2.481879,-0.011381,-0.012054,0.019251,-0.005392,0.000000,-0.012661
5.815326,0.003906,0.999969,0.003906,-0.000000,0.999969,-0.000000,0.999969,-0.165072,-0.492655,0.162654,-0.164995,-0.496703,0.162611,0.001300,0.011552,-0.000970,0.011666,0.910884,-1.396864,2.480212,3.629150,4.712379,2.481664,-0.012267,-0.013048,0.020805,-0.005449,0.000000,-0.011764
5.835381,0.003906,0.999969,0.003906,-0.000000,0.999969,-0.000000,0.999969,-0.165072,-0.492455,0.162654,-0.164976,-0.496498,0.162602,0.001189,0.011209,-0.000988,0.011315,0.910649,-1.397116,2.480578,3.629070,4.712424,2.481432,-0.012029,-0.012557,0.020100,-0.005050,0.000000,-0.010961
5.855435,0.003906,0.999969,0.003906,-0.000000,0.999969,-0.000000,0.999969,-0.165072,-0.492255,0.162654,-0.164956,-0.496265,0.162602,0.000321,0.009643,0.000122,0.009650,0.910398,-1.397417,2.480991,3.628978,4.712395,2.481177,-0.011482,-0.012455,0.017088,-0.005012,0.000000,-0.011476
5.875491,0.003906,0.999969,0.003906,-0.000000,0.999969,-0.000000,0.999969,-0.165072,-0.492055,0.162654,-0.164943,-0.496067,0.162601,-0.000610,0.008389,0.000352,0.008419,0.910186,-1.397668,2.481339,3.628894,4.712339,2.481001,-0.011421,-0.010938,0.014436,-0.004608,0.000000,-0.010764
5.895545,0.003906,0.999969,0.003906,-0.000000,0.999969,-0.000000,0.999969,-0.165072,-0.491855,0.162654,-0.164970,-0.495925,0.162606,-0.001202,0.008795,0.000952,0.008928,0.909946,-1.397847,2.481579,3.628814,4.712420,2.480726,-0.012881,-0.012423,0.014884,-0.004967,0.000000,-0.011662
5.915600,0.003906,0.999969,0.003906,-0.000000,0.999969,-0.000000,0.999969,-0.165072,-0.491655,0.162654,-0.165038,-0.495746,0.162649,-0.001606,0.008896,0.001188,0.009117,0.909634,-1.398120,2.481863,3.628662,4.712339,2.480522,-0.013661,-0.012761,0.015049,-0.006096,0.000000,-0.012360
5.935654,0.003906,0.999969,0.003906,-0.000000,0.999969,-0.000000,0.999969,-0.165072,-0.491455,0.162654,-0.165017,-0.495573,0.162673,-0.001431,0.008559,0.000931,0.008728,0.909443,-1.398400,2.482179,3.628590,4.712383,2.480271,-0.012969,-0.011943,0.014429,-0.005323,0.000000,-0.012964
5.955709,0.003906,0.999969,0.003906,-0.000000,0.999969,-0.000000,0.999969,-0.165072,-0.491255,0.162654,-0.165047,-0.495389,0.162661,-0.000714,0.008962,0.000365,0.008998,0.909159,-1.398595,2.482486,3.628490,4.712403,2.480027,-0.012330,-0.011706,0.015269,-0.004305,0.000000,-0.013343
5.975764,0.003906,0.999969,0.003906,-0.000000,0.999969,-0.000000,0.999969,-0.165072,-0.491055,0.162654,-0.165071,-0.495213,0.162689,-0.000742,0.008096,0.000473,0.008144,0.908899,-1.398867,2.482777,3.628439,4.712411,2.479791,-0.011301,-0.010762,0.013885,-0.004629,0.000000,-0.012562
5.995818,0.003906,0.999969,0.003906,-0.000000,0.999969,-0.000000,0.999969,-0.165072,-0.490855,0.162654,-0.165057,-0.495039,0.162700,-0.000595,0.009265,0.000242,0.009287,0.908696,-1.399111,2.483098,3.628314,4.712443,2.479536,-0.012533,-0.011767,0.016081,-0.005673,0.000000,-0.013249
6.015874,0.003906,0.999969,0.003906,-0.000000,0.999969,-0.000000,0.999969,-0.165072,-0.490655,0.162654,-0.165096,-0.494838,0.162675,0.000055,0.009985,0.000019,0.009986,0.908400,-1.399291,2.483421,3.628211,4.712371,2.479240,-0.012400,-0.012563,0.017555,-0.005331,0.000000,-0.013178
6.035928,0.003906,0.999969,0.003906,-0.000000,0.999969,-0.000000,0.999969,-0.165072,-0.490455,0.162654,-0.165078,-0.494637,0.162658,0.000236,0.010046,-0.000433,0.010058,0.908164,-1.399518,2.483785,3.628114,4.712428,2.478969,-0.012195,-0.011873,0.017555,-0.004393,0.000000,-0.012358
6.055983,0.003906,0.999969,0.003906,-0.000000,0.999969,-0.000000,0.999969,-0.165072,-0.490255,0.162654,-0.165076,-0.494442,0.162666,0.000163,0.009399,-0.000035,0.009401,0.907933,-1.399775,2.484130,3.627986,4.712383,2.478730,-0.011511,-0.011838,0.016449,-0.004300,0.000000,-0.012801
6.076037,0.003906,0.999969,0.003906,-0.000000,0.999969,-0.000000,0.999969,-0.165072,-0.490055,0.162654,-0.165108,-0.494245,0.162673,-0.000534,0.009833,0.000174,0.009849,0.907641,-1.400022,2.484458,3.627882,4.712363,2.478459,-0.013183,-0.012527,0.016815,-0.004410,0.000000,-0.014633
6.096095,0.003906,0.999969,0.003906,-0.000000,0.999969,-0.000000,0.999969,-0.165072,-0.489855,0.162654,-0.165091,-0.494054,0.162698,-0.000398,0.010729,-0.000205,0.010739,0.907418,-1.400326,2.484802,3.627810,4.712403,2.478215,-0.014097,-0.012927,0.018435,-0.004865,0.000000,-0.013361
6.116150,0.003906,0.999969,0.003906,-0.000000,0.999969,-0.000000,0.999969,-0.165072,-0.489655,0.162654,-0.165080,-0.493824,0.162676,0.000762,0.011462,-0.000813,0.011516,0.907154,-1.400578,2.485197,3.627742,4.712371,2.477912,-0.013165,-0.013008,0.020469,-0.006034,0.000000,-0.012591
6.136159,0.003906,0.999969,0.003906,-0.000000,0.999969,-0.000000,0.999969,-0.165072,-0.489455,0.162654,-0.165058,-0.493595,0.162632,0.001525,0.011438,-0.000996,0.011582,0.906895,-1.400781,2.485613,3.627606,4.712403,2.477696,-0.011921,-0.013065,0.020588,-0.004672,0.000000,-0.012374
6.156225,0.003906,0.999969,0.003906,-0.000000,0.999969,-0.000000,0.999969,-0.165072,-0.489255,0.162654,-0.165000,-0.493336,0.162591,0.000922,0.011399,-0.000283,0.011440,0.906655,-1.401057,2.486081,3.627563,4.712431,2.477412,-0.012852,-0.014156,0.020395,-0.005550,0.000000,-0.014507
6.176290,0.003906,0.999969,0.003906,-0.000000,0.999969,-0.000000,0.999969,-0.165072,-0.489055,0.162654,-0.165039,-0.493116,0.162629,-0.000221,0.010967,0.000232,0.010971,0.906331,-1.401393,2.486445,3.627446,4.712371,2.477165,-0.014156,-0.014087,0.019235,-0.006409,0.000000,-0.015293
6.196345,0.003906,0.999969,0.003906,-0.000000,0.999969,-0.000000,0.999969,-0.165072,-0.488855,0.162654,-0.165032,-0.492915,0.162660,-0.000618,0.010556,0.000218,0.010577,0.906088,-1.401709,2.486808,3.627306,4.712379,2.476838,-0.014288,-0.013332,0.018368,-0.006591,0.000000,-0.014128
6.216402,0.003906,0.999969,0.003906,-0.000000,0.999969,-0.000000,0.999969,-0.165072,-0.488655,0.162654,-0.165076,-0.492688,0.162646,-0.000089,0.010345,-0.000277,0.010349,0.905731,-1.401949,2.487176,3.627215,4.712379,2.476574,-0.013184,-0.012376,0.018059,-0.005391,0.000000,-0.012867
6.236459,0.003906,0.999969,0.003906,-0.000000,0.999969,-0.000000,0.999969,-0.165072,-0.488455,0.162654,-0.165044,-0.492495,0.162642,-0.000110,0.010304,-0.000322,0.010310,0.905540,-1.402193,2.487537,3.627082,4.712371,2.476331,-0.013174,-0.012219,0.017981,-0.005419,0.000000,-0.013193
6.256514,0.003906,0.999969,0.003906,-0.000000,0.999969,-0.000000,0.999969,-0.165072,-0.488255,0.162654,-0.165041,-0.492297,0.162646,-0.000106,0.010542,-0.000008,0.010542,0.905288,-1.402453,2.487888,3.626978,4.712399,2.476067,-0.013478,-0.013169,0.018434,-0.005632,0.000000,-0.012940
6.276568,0.003906,0.999969,0.003906,-0.000000,0.999969,-0.000000,0.999969,-0.165072,-0.488055,0.162654,-0.165028,-0.492080,0.162633,-0.000281,0.009980,0.000349,0.009990,0.905041,-1.402705,2.488272,3.626874,4.712379,2.475792,-0.013060,-0.013115,0.017417,-0.005569,0.000000,-0.013832
6.296623,0.003906,0.999969,0.003906,-0.000000,0.999969,-0.000000,0.999969,-0.165072,-0.487855,0.162654,-0.165063,-0.491884,0.162638,0.000008,0.010162,-0.000288,0.010166,0.904733,-1.402948,2.488592,3.626798,4.712391,2.475500,-0.012834,-0.012183,0.017774,-0.005217,0.000000,-0.012954
6.316678,0.003906,0.999969,0.003906,-0.000000,0.999969,-0.000000,0.999969,-0.165072,-0.487655,0.162654,-0.165052,-0.491677,0.162627,-0.000417,0.009568,0.000221,0.009580,0.904490,-1.403188,2.488964,3.626670,4.712395,2.475289,-0.012777,-0.012368,0.016435,-0.004404,0.000000,-0.011619
6.336710,0.003906,0.999969,0.003906,-0.000000,0.999969,-0.000000,0.999969,-0.165072,-0.487455,0.162654,-0.165060,-0.491515,0.162654,-0.000976,0.009012,0.000850,0.009105,0.904267,-1.403448,2.489245,3.626594,4.712411,2.475045,-0.012981,-0.012674,0.015322,-0.004838,0.000000,-0.012907
6.356767,0.003906,0.999969,0.003906,-0.000000,0.999969,-0.000000,0.999969,-0.165072,-0.487255,0.162654,-0.165086,-0.491317,0.162647,-0.000953,0.009178,0.000929,0.009274,0.903983,-1.403672,2.489567,3.626530,4.712375,2.474762,-0.013161,-0.013071,0.015607,-0.004809,0.000000,-0.013903
6.376824,0.003906,0.999969,0.003906,-0.000000,0.999969,-0.000000,0.999969,-0.165072,-0.487055,0.162654,-0.165112,-0.491162,0.162701,-0.000982,0.009543,0.000948,0.009640,0.903723,-1.403968,2.489843,3.626394,4.712463,2.474495,-0.013679,-0.013517,0.016312,-0.005442,0.000000,-0.013363
6.396868,0.003906,0.999969,0.003906,-0.000000,0.999969,-0.000000,0.999969,-0.165072,-0.486855,0.162654,-0.165155,-0.490958,0.162743,-0.000231,0.009972,0.000453,0.009985,0.903412,-1.404292,2.490174,3.626293,4.712391,2.474186,-0.013023,-0.013429,0.017314,-0.004929,0.000000,-0.013314
6.416937,0.003906,0.999969,0.003906,-0.000000,0.999969,-0.000000,0.999969,-0.165072,-0.486655,0.162654,-0.165101,-0.490715,0.162710,0.000981,0.011318,-0.001459,0.011454,0.903192,-1.404555,2.490619,3.626209,4.712388,2.473992,-0.012791,-0.011783,0.019983,-0.004283,0.000000,-0.012575
6.437004,0.003906,0.999969,0.003906,-0.000000,0.999969,-0.000000,0.999969,-0.165072,-0.486455,0.162654,-0.165086,-0.490506,0.162704,0.001394,0.012006,-0.001678,0.012203,0.902944,-1.404816,2.490991,3.626122,4.712415,2.473756,-0.013011,-0.012347,0.021455,-0.004911,0.000000,-0.012408
6.457074,0.003906,0.999969,0.003906,-0.000000,0.999969,-0.000000,0.999969,-0.165072,-0.486255,0.162654,-0.165063,-0.490260,0.162643,0.000989,0.010935,-0.000994,0.011025,0.902677,-1.405011,2.491419,3.626046,4.712383,2.473516,-0.012314,-0.012117,0.019650,-0.005741,0.000000,-0.013019
6.477130,0.003906,0.999969,0.003906,-0.000000,0.999969,-0.000000,0.999969,-0.165072,-0.486055,0.162654,-0.165062,-0.490071,0.162638,-0.000048,0.009784,-0.000039,0.009784,0.902433,-1.405239,2.491754,3.625934,4.712403,2.473213,-0.012529,-0.012169,0.017205,-0.005640,0.000000,-0.013935
6.497181,0.003906,0.999969,0.003906,-0.000000,0.999969,-0.000000,0.999969,-0.165072,-0.485855,0.162654,-0.165085,-0.489878,0.162638,-0.000131,0.009214,-0.000024,0.009215,0.902153,-1.405475,2.492074,3.625858,4.712388,2.472993,-0.011946,-0.011496,0.016076,-0.004879,0.000000,-0.011916
6.517235,0.003906,0.999969,0.003906,-0.000000,0.999969,-0.000000,0.999969,-0.165072,-0.485655,0.162654,-0.165060,-0.489694,0.162649,0.000675,0.009417,-0.000561,0.009458,0.901962,-1.405739,2.492414,3.625746,4.712379,2.472726,-0.010913,-0.010998,0.016816,-0.004813,0.000000,-0.011607
6.537289,0.003906,0.999969,0.003906,-0.000000,0.999969,-0.000000,0.999969,-0.165072,-0.485455,0.162654,-0.165092,-0.489502,0.162636,0.000423,0.009985,-0.000418,0.010002,0.901669,-1.405930,2.492742,3.625574,4.712363,2.472502,-0.012053,-0.011873,0.017734,-0.005416,0.000000,-0.012636
6.557347,0.003906,0.999969,0.003906,-0.000000,0.999969,-0.000000,0.999969,-0.165072,-0.485255,0.162654,-0.165068,-0.489298,0.162636,0.000155,0.010411,-0.000007,0.010412,0.901434,-1.406210,2.493102,3.625550,4.712415,2.472211,-0.013037,-0.013151,0.018375,-0.005745,0.000000,-0.013420
6.577402,0.003906,0.999969,0.003906,-0.000000,0.999969,-0.000000,0.999969,-0.165072,-0.485055,0.162654,-0.165073,-0.489095,0.162621,-0.000019,0.010244,0.000000,0.010244,0.901171,-1.406434,2.493449,3.625466,4.712399,2.471972,-0.013115,-0.013042,0.017691,-0.004056,0.000000,-0.013358
6.597459,0.003906,0.999969,0.003906,-0.000000,0.999969,-0.000000,0.999969,-0.165072,-0.484855,0.162654,-0.165038,-0.488856,0.162602,0.000182,0.009861,0.000079,0.009863,0.900923,-1.406718,2.493871,3.625419,4.712399,2.471676,-0.012312,-0.012715,0.017324,-0.004874,0.000000,-0.012657
6.617514,0.003906,0.999969,0.003906,-0.000000,0.999969,-0.000000,0.999969,-0.165072,-0.484655,0.162654,-0.165064,-0.488702,0.162646,-0.000175,0.009724,0.000630,0.009746,0.900683,-1.406982,2.494149,3.625230,4.712399,2.471472,-0.012721,-0.013466,0.017070,-0.005625,0.000000,-0.012322
6.637565,0.003906,0.999969,0.003906,-0.000000,0.999969,-0.000000,0.999969,-0.165072,-0.484455,0.162654,-0.165081,-0.488506,0.162657,-0.000526,0.009468,0.000790,0.009516,0.900412,-1.407250,2.494469,3.625194,4.712375,2.471241,-0.012969,-0.013354,0.016387,-0.005234,0.000000,-0.012404
6.657620,0.003906,0.999969,0.003906,-0.000000,0.999969,-0.000000,0.999969,-0.165072,-0.484255,0.162654,-0.165089,-0.488326,0.162707,-0.000841,0.008624,0.000850,0.008706,0.900168,-1.407578,2.494784,3.625090,4.712375,2.470921,-0.012405,-0.012235,0.014815,-0.005229,0.000000,-0.011778
6.677635,0.003906,0.999969,0.003906,-0.000000,0.999969,-0.000000,0.999969,-0.165072,-0.484055,0.162654,-0.165079,-0.488137,0.162703,-0.000549,0.008303,0.000869,0.008366,0.899937,-1.407814,2.495121,3.624998,4.712395,2.470754,-0.011529,-0.012005,0.014413,-0.005035,0.000000,-0.011988
6.697693,0.003906,0.999969,0.003906,-0.000000,0.999969,-0.000000,0.999969,-0.165072,-0.483855,0.162654,-0.165109,-0.487956,0.162684,-0.000500,0.009336,0.000192,0.009352,0.899669,-1.407985,2.495424,3.624866,4.712343,2.470514,-0.012784,-0.011958,0.016111,-0.005056,0.000000,-0.012216
6.717747,0.003906,0.999969,0.003906,-0.000000,0.999969,-0.000000,0.999969,-0.165072,-0.483655,0.162654,-0.165098,-0.487780,0.162692,-0.000071,0.010265,-0.000238,0.010268,0.899450,-1.408233,2.495736,3.624802,4.712391,2.470199,-0.013291,-0.012425,0.017933,-0.005445,0.000000,-0.011967
6.737806,0.003906,0.999969,0.003906,-0.000000,0.999969,-0.000000,0.999969,-0.165072,-0.483455,0.162654,-0.165122,-0.487594,0.162711,0.000193,0.010064,-0.000260,0.010069,0.899166,-1.408494,2.496059,3.624662,4.712411,2.470016,-0.012615,-0.012327,0.017581,-0.004541,0.000000,-0.011576
6.757861,0.003906,0.999969,0.003906,-0.000000,0.999969,-0.000000,0.999969,-0.165072,-0.483255,0.162654,-0.165085,-0.487381,0.162694,0.000450,0.009363,-0.000000,0.009373,0.898958,-1.408749,2.496440,3.624606,4.712388,2.469756,-0.011308,-0.012016,0.016678,-0.005078,0.000000,-0.012108
6.777916,0.003906,0.999969,0.003906,-0.000000,0.999969,-0.000000,0.999969,-0.165072,-0.483055,0.162654,-0.165101,-0.487214,0.162717,0.000424,0.009179,-0.000275,0.009193,0.898714,-1.409001,2.496727,3.624514,4.712403,2.469493,-0.011121,-0.011304,0.016126,-0.003896,0.000000,-0.012533
6.797971,0.003906,0.999969,0.003906,-0.000000,0.999969,-0.000000,0.999969,-0.165072,-0.482855,0.162654,-0.165085,-0.487009,0.162674,-0.000377,0.009613,0.000522,0.009634,0.898479,-1.409176,2.497092,3.624402,4.712388,2.469241,-0.012982,-0.013042,0.016738,-0.005504,0.000000,-0.013427
6.818023,0.003906,0.999969,0.003906,-0.000000,0.999969,-0.000000,0.999969,-0.165072,-0.482655,0.162654,-0.165096,-0.486812,0.162684,0.000218,0.011022,-0.000303,0.011028,0.898207,-1.409440,2.497435,3.624282,4.712395,2.468921,-0.013845,-0.013472,0.019263,-0.005020,0.000000,-0.013120
6.838081,0.003906,0.999969,0.003906,-0.000000,0.999969,-0.000000,0.999969,-0.165072,-0.482455,0.162654,-0.165092,-0.486599,0.162694,0.000615,0.010778,-0.000447,0.010805,0.897947,-1.409736,2.497796,3.624234,4.712359,2.468698,-0.012901,-0.013041,0.019048,-0.004884,0.000000,-0.011850
6.858133,0.003906,0.999969,0.003906,-0.000000,0.999969,-0.000000,0.999969,-0.165072,-0.482255,0.162654,-0.165043,-0.486376,0.162653,0.000430,0.010048,-0.000429,0.010066,0.897724,-1.409960,2.498211,3.624142,4.712420,2.468459,-0.012268,-0.012088,0.017644,-0.004376,0.000000,-0.011274
6.878168,0.003906,0.999969,0.003906,-0.000000,0.999969,-0.000000,0.999969,-0.165072,-0.482055,0.162654,-0.165060,-0.486176,0.162649,-0.000123,0.009757,-0.000340,0.009764,0.897436,-1.410200,2.498547,3.624066,4.712436,2.468235,-0.012797,-0.011674,0.016810,-0.004125,0.000000,-0.012231
6.898223,0.003906,0.999969,0.003906,-0.000000,0.999969,-0.000000,0.999969,-0.165072,-0.481855,0.162654,-0.165075,-0.485998,0.162671,0.000149,0.010387,-0.000375,0.010395,0.897189,-1.410463,2.498851,3.623970,4.712403,2.467956,-0.013179,-0.012553,0.018008,-0.004152,0.000000,-0.013903
6.918278,0.003906,0.999969,0.003906,-0.000000,0.999969,-0.000000,0.999969,-0.165072,-0.481655,0.162654,-0.165057,-0.485767,0.162644,-0.000211,0.010199,0.000015,0.010201,0.896917,-1.410708,2.499263,3.623854,4.712407,2.467741,-0.013530,-0.012911,0.017628,-0.004751,0.000000,-0.012510
6.938333,0.003906,0.999969,0.003906,-0.000000,0.999969,-0.000000,0.999969,-0.165072,-0.481455,0.162654,-0.165102,-0.485575,0.162639,-0.000244,0.009760,0.000048,0.009763,0.896613,-1.410919,2.499561,3.623790,4.712339,2.467489,-0.013024,-0.012367,0.016927,-0.004978,0.000000,-0.012697
6.958388,0.003906,0.999969,0.003906,-0.000000,0.999969,-0.000000,0.999969,-0.165072,-0.481255,0.162654,-0.165084,-0.485399,0.162663,-0.000299,0.009569,0.000232,0.009576,0.896406,-1.411204,2.499882,3.623706,4.712375,2.467169,-0.012874,-0.012491,0.016578,-0.004915,0.000000,-0.013353
6.978443,0.003906,0.999969,0.003906,-0.000000,0.999969,-0.000000,0.999969,-0.165072,-0.481055,0.162654,-0.165080,-0.485207,0.162676,-0.000335,0.008863,0.000470,0.008882,0.896158,-1.411475,2.500230,3.623570,4.712395,2.466933,-0.012028,-0.011978,0.015542,-0.005651,0.000000,-0.013287
6.998499,0.003906,0.999969,0.003906,-0.000000,0.999969,-0.000000,0.999969,-0.165072,-0.480855,0.162654,-0.165100,-0.485022,0.162671,-0.000147,0.009551,0.000031,0.009552,0.895890,-1.411691,2.500538,3.623486,4.712379,2.466670,-0.012622,-0.012087,0.016669,-0.005181,0.000000,-0.013506
7.018554,0.003906,0.999969,0.003906,-0.000000,0.999969,-0.000000,0.999969,-0.165072,-0.480656,0.162654,-0.165085,-0.484809,0.162685,0.000436,0.010469,-0.000123,0.010479,0.895647,-1.411995,2.500918,3.623378,4.712343,2.466391,-0.012879,-0.013207,0.018562,-0.005484,0.000000,-0.013242
7.038606,0.003906,0.999969,0.003906,-0.000000,0.999969,-0.000000,0.999969,-0.165072,-0.480456,0.162654,-0.165070,-0.484602,0.162694,-0.000094,0.010498,-0.000221,0.010501,0.895399,-1.412291,2.501277,3.623335,4.712358,2.466136,-0.013787,-0.012819,0.018281,-0.005347,0.000000,-0.013730
7.058660,0.003906,0.999969,0.003906,-0.000000,0.999969,-0.000000,0.999969,-0.165072,-0.480256,0.162654,-0.165078,-0.484408,0.162654,-0.000345,0.009786,-0.000099,0.009793,0.895128,-1.412450,2.501614,3.623226,4.712383,2.465860,-0.013278,-0.012070,0.016884,-0.004888,0.000000,-0.011614
